;Sliced by ideaMaker 4.2.3.5680, 2023-05-05 08:28:38 UTC-0400
;Dimension: 305.000 305.000 305.000 0.400
;Plate Shape: 0
;Origin Center: 0
;Extruder Offset #1: 25.000 0.000
;Filament Diameter #1: 1.720
;Filament Diameter #2: 1.750
;Filament Compensation #1: 94.00
;Filament Compensation #2: 100.00
;Filament Density #1: 1240.00
;Filament Density #2: 1240.00
;Filament Type #1: PLA
;Filament Type #2: 
;Filament Name #1: PLA 1.75mm - V2 Hot End
;Filament Name #2: 
;Firmware: Marlin
;Bounding Box: 57.900 247.100 100.929 204.071 0.000 24.900
;Model Gap: 0.000
M221 T0 S94.00
G21
G90
M82
M107
M190 S60
M42 P8 S255
M109 S215
G28 X0 Y0
G28 Z0
G1 Z15.0 F6000.0
G92 E0
G1 F140 E29
G1 X20 Y0 F140 E30
G92 E0
G1 F6000.0
M117 Printing...
M1001
;TOTAL_NUM: 2
;PRINTING_TIME: 0
;REMAINING_TIME: 8870
;LAYER:0
;Z:0.300
;HEIGHT:0.300
M106 S0
;PRINTING: NON-OBJECT
;PRINTING_ID: -1
G1 F1200 E-1.0000
M204 S1000.00
G0 F6000 X60.752 Y101.919
G0 F1500 Z0.300
;TYPE:SKIRT
;WIDTH:0.400
G1 F1200 E0.0000
G1 F2400 X61.245 Y101.634 E0.0294
G1 X61.719 Y101.413 E0.0564
G1 X62.232 Y101.225 E0.0846
G1 X62.736 Y101.088 E0.1116
G1 X63.294 Y100.988 E0.1409
G1 X63.828 Y100.941 E0.1686
G1 X102.077 Y100.941 E2.1440
G1 X102.594 Y100.986 E2.1708
G1 X103.149 Y101.084 E2.1999
G1 X103.654 Y101.220 E2.2269
G1 X104.167 Y101.406 E2.2551
G1 X104.642 Y101.626 E2.2821
G1 X105.138 Y101.912 E2.3117
G1 X105.566 Y102.213 E2.3387
G1 X105.800 Y102.410 E2.3545
G1 X106.031 Y102.215 E2.3701
G1 X106.459 Y101.914 E2.3971
G1 X106.948 Y101.632 E2.4263
G1 X107.422 Y101.411 E2.4533
G1 X107.942 Y101.221 E2.4819
G1 X108.447 Y101.085 E2.5089
G1 X108.998 Y100.987 E2.5378
G1 X109.800 Y100.929 E2.5793
G1 X147.781 Y100.941 E4.5409
G1 X148.302 Y100.987 E4.5679
G1 X148.853 Y101.085 E4.5968
G1 X149.358 Y101.221 E4.6238
G1 X149.878 Y101.411 E4.6524
G1 X150.352 Y101.632 E4.6794
G1 X150.841 Y101.914 E4.7086
G1 X151.269 Y102.215 E4.7356
G1 X151.694 Y102.573 E4.7643
G1 X152.064 Y102.944 E4.7914
G1 X152.500 Y103.484 E4.8272
G1 X152.936 Y102.944 E4.8630
G1 X153.303 Y102.576 E4.8899
G1 X153.724 Y102.221 E4.9183
G1 X154.152 Y101.919 E4.9454
G1 X154.645 Y101.634 E4.9748
G1 X155.119 Y101.413 E5.0018
G1 X155.632 Y101.225 E5.0300
G1 X156.136 Y101.088 E5.0570
G1 X156.694 Y100.988 E5.0863
G1 X157.509 Y100.929 E5.1285
G1 X195.200 Y100.929 E7.0750
G1 X195.994 Y100.986 E7.1162
G1 X196.549 Y101.084 E7.1453
G1 X197.054 Y101.220 E7.1723
G1 X197.567 Y101.406 E7.2005
G1 X198.042 Y101.626 E7.2275
G1 X198.538 Y101.912 E7.2571
G1 X198.966 Y102.213 E7.2841
G1 X199.200 Y102.410 E7.2999
G1 X199.431 Y102.215 E7.3155
G1 X199.859 Y101.914 E7.3425
G1 X200.348 Y101.632 E7.3717
G1 X200.822 Y101.411 E7.3987
G1 X201.342 Y101.221 E7.4273
G1 X201.847 Y101.085 E7.4543
G1 X202.398 Y100.987 E7.4832
G1 X203.200 Y100.929 E7.5247
G1 X240.900 Y100.929 E9.4718
G1 X241.702 Y100.987 E9.5133
G1 X242.253 Y101.085 E9.5422
G1 X242.758 Y101.221 E9.5692
G1 X243.278 Y101.411 E9.5978
G1 X243.752 Y101.632 E9.6248
G1 X244.241 Y101.914 E9.6540
G1 X244.669 Y102.215 E9.6810
G1 X245.094 Y102.573 E9.7097
G1 X245.464 Y102.944 E9.7367
G1 X245.820 Y103.370 E9.7654
G1 X246.120 Y103.799 E9.7925
G1 X246.399 Y104.283 E9.8213
G1 X246.620 Y104.758 E9.8484
G1 X246.811 Y105.285 E9.8773
G1 X246.946 Y105.792 E9.9044
G1 X247.042 Y106.334 E9.9328
G1 X247.100 Y107.137 E9.9744
G1 X247.100 Y197.863 E14.6600
G1 X247.042 Y198.666 E14.7016
G1 X246.946 Y199.208 E14.7300
G1 X246.811 Y199.715 E14.7571
G1 X246.620 Y200.242 E14.7861
G1 X246.399 Y200.717 E14.8131
G1 X246.120 Y201.201 E14.8420
G1 X245.820 Y201.630 E14.8690
G1 X245.464 Y202.056 E14.8977
G1 X245.094 Y202.427 E14.9248
G1 X244.669 Y202.785 E14.9535
G1 X244.241 Y203.086 E14.9805
G1 X243.752 Y203.368 E15.0096
G1 X243.278 Y203.589 E15.0366
G1 X242.758 Y203.779 E15.0652
G1 X242.253 Y203.915 E15.0922
G1 X241.702 Y204.013 E15.1211
G1 X240.900 Y204.071 E15.1627
G1 X203.200 Y204.071 E17.1097
G1 X202.444 Y204.016 E17.1489
G1 X201.942 Y203.931 E17.1752
G1 X201.389 Y203.791 E17.2046
G1 X200.822 Y203.589 E17.2357
G1 X200.348 Y203.368 E17.2627
G1 X199.859 Y203.086 E17.2919
G1 X199.431 Y202.785 E17.3189
G1 X199.200 Y202.590 E17.3345
G1 X198.969 Y202.784 E17.3501
G1 X198.544 Y203.083 E17.3769
G1 X198.055 Y203.366 E17.4061
G1 X197.581 Y203.587 E17.4331
G1 X197.068 Y203.775 E17.4613
G1 X196.564 Y203.912 E17.4883
G1 X195.998 Y204.012 E17.5180
G1 X195.177 Y204.071 E17.5605
G1 X157.500 Y204.071 E19.5064
G1 X156.699 Y204.012 E19.5478
G1 X156.154 Y203.916 E19.5764
G1 X155.650 Y203.781 E19.6034
G1 X155.133 Y203.594 E19.6318
G1 X154.658 Y203.374 E19.6588
G1 X154.162 Y203.088 E19.6884
G1 X153.734 Y202.787 E19.7154
G1 X153.312 Y202.432 E19.7439
G1 X152.942 Y202.062 E19.7709
G1 X152.500 Y201.516 E19.8072
G1 X152.064 Y202.056 E19.8430
G1 X151.694 Y202.427 E19.8701
G1 X151.269 Y202.785 E19.8988
G1 X150.841 Y203.086 E19.9258
G1 X150.352 Y203.368 E19.9550
G1 X149.878 Y203.589 E19.9820
G1 X149.358 Y203.779 E20.0106
G1 X148.853 Y203.915 E20.0376
G1 X148.302 Y204.013 E20.0665
G1 X147.500 Y204.071 E20.1080
G1 X109.800 Y204.071 E22.0550
G1 X109.044 Y204.016 E22.0942
G1 X108.542 Y203.931 E22.1205
G1 X107.989 Y203.791 E22.1499
G1 X107.422 Y203.589 E22.1810
G1 X106.948 Y203.368 E22.2080
G1 X106.459 Y203.086 E22.2372
G1 X106.031 Y202.785 E22.2642
G1 X105.800 Y202.590 E22.2798
G1 X105.569 Y202.784 E22.2954
G1 X105.144 Y203.083 E22.3222
G1 X104.655 Y203.366 E22.3514
G1 X104.181 Y203.587 E22.3784
G1 X103.668 Y203.775 E22.4067
G1 X103.164 Y203.912 E22.4336
G1 X102.598 Y204.012 E22.4633
G1 X101.777 Y204.071 E22.5058
G1 X64.100 Y204.071 E24.4517
G1 X63.299 Y204.012 E24.4932
G1 X62.754 Y203.916 E24.5217
G1 X62.250 Y203.781 E24.5487
G1 X61.733 Y203.594 E24.5771
G1 X61.258 Y203.374 E24.6041
G1 X60.762 Y203.088 E24.6337
G1 X60.334 Y202.787 E24.6607
G1 X59.912 Y202.432 E24.6892
G1 X59.542 Y202.062 E24.7162
G1 X59.185 Y201.637 E24.7449
G1 X58.882 Y201.205 E24.7721
G1 X58.601 Y200.717 E24.8012
G1 X58.380 Y200.242 E24.8283
G1 X58.189 Y199.715 E24.8572
G1 X58.054 Y199.208 E24.8843
G1 X57.958 Y198.666 E24.9127
G1 X57.900 Y197.863 E24.9543
G1 X57.900 Y107.137 E29.6399
G1 X57.958 Y106.334 E29.6815
G1 X58.054 Y105.792 E29.7099
G1 X58.189 Y105.285 E29.7370
G1 X58.380 Y104.758 E29.7660
G1 X58.601 Y104.283 E29.7930
G1 X58.880 Y103.799 E29.8219
G1 X59.180 Y103.370 E29.8489
G1 X59.536 Y102.944 E29.8776
G1 X59.903 Y102.576 E29.9044
G1 X60.324 Y102.221 E29.9329
G1 X60.752 Y101.919 E29.9599
;PRINTING: V2 Box(1).stl
;PRINTING_ID: 1
G1 F1200 E28.9599
G0 F6000 X62.899 Y105.056
;TYPE:WALL-INNER
;WIDTH:0.400
G1 F1200 E29.9599
G1 F2400 X63.278 Y104.879 E29.9815
G1 X63.681 Y104.769 E30.0031
G1 X64.136 Y104.729 E30.0267
G1 X101.774 Y104.729 E31.9706
G1 X102.212 Y104.767 E31.9933
G1 X102.616 Y104.876 E32.0149
G1 X102.996 Y105.052 E32.0365
G1 X103.338 Y105.292 E32.0581
G1 X103.634 Y105.588 E32.0797
G1 X103.876 Y105.934 E32.1015
G1 X104.052 Y106.313 E32.1231
G1 X104.161 Y106.720 E32.1448
G1 X104.200 Y107.164 E32.1679
G1 X104.200 Y197.836 E36.8507
G1 X104.161 Y198.280 E36.8737
G1 X104.052 Y198.687 E36.8955
G1 X103.876 Y199.066 E36.9170
G1 X103.636 Y199.409 E36.9387
G1 X103.340 Y199.706 E36.9603
G1 X103.001 Y199.944 E36.9817
G1 X102.622 Y200.121 E37.0033
G1 X102.220 Y200.231 E37.0248
G1 X101.751 Y200.271 E37.0491
G1 X64.127 Y200.271 E38.9923
G1 X63.687 Y200.232 E39.0151
G1 X63.283 Y200.124 E39.0367
G1 X62.904 Y199.948 E39.0583
G1 X62.562 Y199.708 E39.0798
G1 X62.266 Y199.412 E39.1015
G1 X62.024 Y199.066 E39.1233
G1 X61.848 Y198.687 E39.1448
G1 X61.739 Y198.280 E39.1666
G1 X61.700 Y197.836 E39.1896
G1 X61.700 Y107.164 E43.8724
G1 X61.739 Y106.720 E43.8955
G1 X61.848 Y106.313 E43.9172
G1 X62.024 Y105.934 E43.9388
G1 X62.264 Y105.591 E43.9604
G1 X62.557 Y105.296 E43.9819
G1 X62.899 Y105.056 E44.0035
G0 F6000 X62.698 Y104.708
;TYPE:WALL-OUTER
;WIDTH:0.400
G1 F2400 X63.140 Y104.502 E44.0287
G1 X63.610 Y104.374 E44.0538
G1 X64.118 Y104.329 E44.0802
G1 X101.791 Y104.329 E46.0258
G1 X102.282 Y104.372 E46.0513
G1 X102.753 Y104.499 E46.0765
G1 X103.197 Y104.704 E46.1017
G1 X103.596 Y104.985 E46.1269
G1 X103.941 Y105.330 E46.1521
G1 X104.224 Y105.733 E46.1776
G1 X104.430 Y106.176 E46.2028
G1 X104.556 Y106.650 E46.2281
G1 X104.600 Y107.146 E46.2538
G1 X104.600 Y197.854 E50.9385
G1 X104.556 Y198.350 E50.9642
G1 X104.430 Y198.824 E50.9896
G1 X104.224 Y199.267 E51.0148
G1 X103.944 Y199.667 E51.0400
G1 X103.599 Y200.013 E51.0652
G1 X103.202 Y200.292 E51.0903
G1 X102.760 Y200.498 E51.1155
G1 X102.290 Y200.626 E51.1406
G1 X101.768 Y200.671 E51.1677
G1 X64.109 Y200.671 E53.1126
G1 X63.617 Y200.627 E53.1381
G1 X63.146 Y200.501 E53.1633
G1 X62.703 Y200.296 E53.1885
G1 X62.304 Y200.015 E53.2137
G1 X61.959 Y199.670 E53.2389
G1 X61.676 Y199.267 E53.2644
G1 X61.470 Y198.824 E53.2896
G1 X61.344 Y198.350 E53.3149
G1 X61.300 Y197.854 E53.3406
G1 X61.300 Y107.146 E58.0253
G1 X61.344 Y106.650 E58.0510
G1 X61.470 Y106.176 E58.0764
G1 X61.676 Y105.733 E58.1016
G1 X61.956 Y105.333 E58.1268
G1 X62.298 Y104.989 E58.1519
G1 X62.698 Y104.708 E58.1771
G1 F1200 E57.1771
G0 F6000 X102.366 Y104.912
;TYPE:SOLID-FILL
;WIDTH:0.400
G1 F1200 E58.1771
G1 F2400 X104.014 Y106.560 E58.2975
G1 F1200 E57.2975
G0 F6000 X104.100 Y107.211
G1 F1200 E58.2975
G1 F2400 X101.716 Y104.827 E58.4716
G1 F1200 E57.4716
G0 F6000 X101.150 Y104.827
G1 F1200 E58.4716
G1 F2400 X104.100 Y107.777 E58.6871
G1 F1200 E57.6871
G0 F6000 X104.100 Y108.342
G1 F1200 E58.6871
G1 F2400 X100.585 Y104.827 E58.9438
G1 F1200 E57.9438
G0 F6000 X100.019 Y104.827
G1 F1200 E58.9438
G1 F2400 X104.100 Y108.908 E59.2419
G1 F1200 E58.2419
G0 F6000 X104.100 Y109.474
G1 F1200 E59.2419
G1 F2400 X99.453 Y104.827 E59.5813
G1 F1200 E58.5813
G0 F6000 X98.888 Y104.827
G1 F1200 E59.5813
G1 F2400 X104.100 Y110.039 E59.9620
G1 F1200 E58.9620
G0 F6000 X104.100 Y110.605
G1 F1200 E59.9620
G1 F2400 X98.322 Y104.827 E60.3840
G1 F1200 E59.3840
G0 F6000 X97.756 Y104.827
G1 F1200 E60.3840
G1 F2400 X104.100 Y111.171 E60.8473
G1 F1200 E59.8473
G0 F6000 X104.100 Y111.737
G1 F1200 E60.8473
G1 F2400 X97.191 Y104.827 E61.3520
G1 F1200 E60.3520
G0 F6000 X96.625 Y104.827
G1 F1200 E61.3520
G1 F2400 X104.100 Y112.302 E61.8979
G1 F1200 E60.8979
G0 F6000 X104.100 Y112.868
G1 F1200 E61.8979
G1 F2400 X96.059 Y104.827 E62.4852
G1 F1200 E61.4852
G0 F6000 X95.494 Y104.827
G1 F1200 E62.4852
G1 F2400 X104.100 Y113.434 E63.1138
G1 F1200 E62.1138
G0 F6000 X104.100 Y113.999
G1 F1200 E63.1138
G1 F2400 X94.928 Y104.827 E63.7837
G1 F1200 E62.7837
G0 F6000 X94.362 Y104.827
G1 F1200 E63.7837
G1 F2400 X104.100 Y114.565 E64.4950
G1 F1200 E63.4950
G0 F6000 X104.100 Y115.131
G1 F1200 E64.4950
G1 F2400 X93.797 Y104.827 E65.2475
G1 F1200 E64.2475
G0 F6000 X93.231 Y104.827
G1 F1200 E65.2475
G1 F2400 X104.100 Y115.696 E66.0414
G1 F1200 E65.0414
G0 F6000 X104.100 Y116.262
G1 F1200 E66.0414
G1 F2400 X92.665 Y104.827 E66.8766
G1 F1200 E65.8766
G0 F6000 X92.099 Y104.827
G1 F1200 E66.8766
G1 F2400 X104.100 Y116.828 E67.7531
G1 F1200 E66.7531
G0 F6000 X104.100 Y117.393
G1 F1200 E67.7531
G1 F2400 X91.534 Y104.827 E68.6709
G1 F1200 E67.6709
G0 F6000 X90.968 Y104.827
G1 F1200 E68.6709
G1 F2400 X104.100 Y117.959 E69.6300
G1 F1200 E68.6300
G0 F6000 X104.100 Y118.525
G1 F1200 E69.6300
G1 F2400 X90.402 Y104.827 E70.6305
G1 F1200 E69.6305
G0 F6000 X89.837 Y104.827
G1 F1200 E70.6305
G1 F2400 X104.100 Y119.090 E71.6723
G1 F1200 E70.6723
G0 F6000 X104.100 Y119.656
G1 F1200 E71.6723
G1 F2400 X89.271 Y104.827 E72.7553
G1 F1200 E71.7553
G0 F6000 X88.705 Y104.827
G1 F1200 E72.7553
G1 F2400 X104.100 Y120.222 E73.8798
G1 F1200 E72.8798
G0 F6000 X104.100 Y120.787
G1 F1200 E73.8798
G1 F2400 X88.140 Y104.827 E75.0455
G1 F1200 E74.0455
G0 F6000 X87.574 Y104.827
G1 F1200 E75.0455
G1 F2400 X104.100 Y121.353 E76.2525
G1 F1200 E75.2525
G0 F6000 X104.100 Y121.919
G1 F1200 E76.2525
G1 F2400 X87.008 Y104.827 E77.5008
G1 F1200 E76.5008
G0 F6000 X86.443 Y104.827
G1 F1200 E77.5008
G1 F2400 X104.100 Y122.485 E78.7905
G1 F1200 E77.7905
G0 F6000 X104.100 Y123.050
G1 F1200 E78.7905
G1 F2400 X85.877 Y104.827 E80.1215
G1 F1200 E79.1215
G0 F6000 X85.311 Y104.827
G1 F1200 E80.1215
G1 F2400 X104.100 Y123.616 E81.4938
G1 F1200 E80.4938
G0 F6000 X104.100 Y124.182
G1 F1200 E81.4938
G1 F2400 X84.746 Y104.827 E82.9074
G1 F1200 E81.9074
G0 F6000 X84.180 Y104.827
G1 F1200 E82.9074
G1 F2400 X104.100 Y124.747 E84.3623
G1 F1200 E83.3623
G0 F6000 X104.100 Y125.313
G1 F1200 E84.3623
G1 F2400 X83.614 Y104.827 E85.8586
G1 F1200 E84.8586
G0 F6000 X83.048 Y104.827
G1 F1200 E85.8586
G1 F2400 X104.100 Y125.879 E87.3962
G1 F1200 E86.3962
G0 F6000 X104.100 Y126.444
G1 F1200 E87.3962
G1 F2400 X82.483 Y104.827 E88.9751
G1 F1200 E87.9751
G0 F6000 X81.917 Y104.827
G1 F1200 E88.9751
G1 F2400 X104.100 Y127.010 E90.5953
G1 F1200 E89.5953
G0 F6000 X104.100 Y127.576
G1 F1200 E90.5953
G1 F2400 X81.351 Y104.827 E92.2568
G1 F1200 E91.2568
G0 F6000 X80.786 Y104.827
G1 F1200 E92.2568
G1 F2400 X104.100 Y128.141 E93.9596
G1 F1200 E92.9596
G0 F6000 X104.100 Y128.707
G1 F1200 E93.9596
G1 F2400 X80.220 Y104.827 E95.7038
G1 F1200 E94.7038
G0 F6000 X79.654 Y104.827
G1 F1200 E95.7038
G1 F2400 X104.100 Y129.273 E97.4893
G1 F1200 E96.4893
G0 F6000 X104.100 Y129.838
G1 F1200 E97.4893
G1 F2400 X79.089 Y104.827 E99.3160
G1 F1200 E98.3160
G0 F6000 X78.523 Y104.827
G1 F1200 E99.3160
G1 F2400 X104.100 Y130.404 E101.1841
G1 F1200 E100.1841
G0 F6000 X104.100 Y130.970
G1 F1200 E101.1841
G1 F2400 X77.957 Y104.827 E103.0935
G1 F1200 E102.0935
G0 F6000 X77.392 Y104.827
G1 F1200 E103.0935
G1 F2400 X104.100 Y131.536 E105.0443
G1 F1200 E104.0443
G0 F6000 X104.100 Y132.101
G1 F1200 E105.0443
G1 F2400 X76.826 Y104.827 E107.0363
G1 F1200 E106.0363
G0 F6000 X76.260 Y104.827
G1 F1200 E107.0363
G1 F2400 X104.100 Y132.667 E109.0697
G1 F1200 E108.0697
G0 F6000 X104.100 Y133.233
G1 F1200 E109.0697
G1 F2400 X75.695 Y104.827 E111.1444
G1 F1200 E110.1444
G0 F6000 X75.129 Y104.827
G1 F1200 E111.1444
G1 F2400 X104.100 Y133.798 E113.2604
G1 F1200 E112.2604
G0 F6000 X104.100 Y134.364
G1 F1200 E113.2604
G1 F2400 X74.563 Y104.827 E115.4177
G1 F1200 E114.4177
G0 F6000 X73.998 Y104.827
G1 F1200 E115.4177
G1 F2400 X104.100 Y134.930 E117.6163
G1 F1200 E116.6163
G0 F6000 X104.100 Y135.495
G1 F1200 E117.6163
G1 F2400 X73.432 Y104.827 E119.8563
G1 F1200 E118.8563
G0 F6000 X72.866 Y104.827
G1 F1200 E119.8563
G1 F2400 X104.100 Y136.061 E122.1375
G1 F1200 E121.1375
G0 F6000 X104.100 Y136.627
G1 F1200 E122.1375
G1 F2400 X72.300 Y104.827 E124.4601
G1 F1200 E123.4601
G0 F6000 X71.735 Y104.827
G1 F1200 E124.4601
G1 F2400 X104.100 Y137.192 E126.8240
G1 F1200 E125.8240
G0 F6000 X104.100 Y137.758
G1 F1200 E126.8240
G1 F2400 X71.169 Y104.827 E129.2292
G1 F1200 E128.2292
G0 F6000 X70.603 Y104.827
G1 F1200 E129.2292
G1 F2400 X104.100 Y138.324 E131.6758
G1 F1200 E130.6758
G0 F6000 X104.100 Y138.889
G1 F1200 E131.6758
G1 F2400 X70.038 Y104.827 E134.1636
G1 F1200 E133.1636
G0 F6000 X69.472 Y104.827
G1 F1200 E134.1636
G1 F2400 X104.100 Y139.455 E136.6928
G1 F1200 E135.6928
G0 F6000 X104.100 Y140.021
G1 F1200 E136.6928
G1 F2400 X68.906 Y104.827 E139.2633
G1 F1200 E138.2633
G0 F6000 X68.341 Y104.827
G1 F1200 E139.2633
G1 F2400 X104.100 Y140.586 E141.8751
G1 F1200 E140.8751
G0 F6000 X104.100 Y141.152
G1 F1200 E141.8751
G1 F2400 X67.775 Y104.827 E144.5282
G1 F1200 E143.5282
G0 F6000 X67.209 Y104.827
G1 F1200 E144.5282
G1 F2400 X104.100 Y141.718 E147.2226
G1 F1200 E146.2226
G0 F6000 X104.100 Y142.284
G1 F1200 E147.2226
G1 F2400 X66.644 Y104.827 E149.9584
G1 F1200 E148.9584
G0 F6000 X66.078 Y104.827
G1 F1200 E149.9584
G1 F2400 X104.100 Y142.849 E152.7354
G1 F1200 E151.7354
G0 F6000 X104.100 Y143.415
G1 F1200 E152.7354
G1 F2400 X65.512 Y104.827 E155.5538
G1 F1200 E154.5538
G0 F6000 X64.947 Y104.827
G1 F1200 E155.5538
G1 F2400 X104.100 Y143.981 E158.4135
G1 F1200 E157.4135
G0 F6000 X104.100 Y144.546
G1 F1200 E158.4135
G1 F2400 X64.381 Y104.827 E161.3145
G1 F1200 E160.3145
G0 F6000 X63.842 Y104.854
G1 F1200 E161.3145
G1 F2400 X104.100 Y145.112 E164.2549
G1 F1200 E163.2549
G0 F6000 X104.100 Y145.678
G1 F1200 E164.2549
G1 F2400 X63.377 Y104.955 E167.2292
G0 F6000 X62.983 Y105.126
G1 F2400 X104.100 Y146.243 E170.2323
G1 F1200 E169.2323
G0 F6000 X104.100 Y146.809
G1 F1200 E170.2323
