;Sliced by ideaMaker 4.1.1.5050, 2021-08-02 18:00:14 UTC-0400
;Dimension: 305.000 305.000 305.000 0.400
;Plate Shape: 0
;Origin Center: 0
;Extruder Offset #1: 25.000 0.000
;Filament Diameter #1: 1.720
;Filament Diameter #2: 1.750
;Filament Compensation #1: 94.00
;Filament Compensation #2: 100.00
;Filament Density #1: 1240.00
;Filament Density #2: 1240.00
;Bounding Box: 101.050 203.938 127.395 177.605 0.000 8.700
;Model Gap: 0.000
M221 T0 S94.00
G21
G90
M82
M107
M190 S50
M42 P8 S255
M109 S215
G28 X0 Y0
G28 Z0
G1 Z15.0 F6000.0
G92 E0
G1 F140 E29
G1 X20 Y0 F140 E30
G92 E0
G1 F6000.0
M117 Printing...
M1001
;TOTAL_NUM: 1
;PRINTING_TIME: 0
;REMAINING_TIME: 2478
;LAYER:0
;Z:0.300
;HEIGHT:0.300
M106 S0
M140 S50
;PRINTING: NON-OBJECT
;PRINTING_ID: -1
G1 F1200 E-1.0000
G0 F6000 X103.481 Y128.681
G0 F600 Z0.300
;TYPE:SKIRT
;WIDTH:0.400
G1 F1200 E0.0000
G1 F1800 X103.909 Y128.380 E0.0270
G1 X104.398 Y128.098 E0.0562
G1 X104.872 Y127.877 E0.0832
G1 X105.392 Y127.687 E0.1118
G1 X105.897 Y127.551 E0.1388
G1 X106.448 Y127.453 E0.1677
G1 X107.250 Y127.395 E0.2092
G1 X198.031 Y127.407 E4.8977
G1 X198.552 Y127.453 E4.9247
G1 X199.103 Y127.551 E4.9536
G1 X199.608 Y127.687 E4.9806
G1 X200.128 Y127.877 E5.0092
G1 X200.602 Y128.098 E5.0362
G1 X201.091 Y128.380 E5.0654
G1 X201.519 Y128.681 E5.0924
G1 X201.944 Y129.039 E5.1211
G1 X202.314 Y129.410 E5.1481
G1 X202.670 Y129.836 E5.1768
G1 X202.970 Y130.265 E5.2038
G1 X203.249 Y130.749 E5.2327
G1 X203.470 Y131.224 E5.2598
G1 X203.661 Y131.751 E5.2887
G1 X203.796 Y132.258 E5.3158
G1 X203.892 Y132.800 E5.3442
G1 X203.938 Y133.322 E5.3713
G1 X203.938 Y171.679 E7.3523
G1 X203.896 Y172.153 E7.3768
G1 X203.812 Y172.648 E7.4028
G1 X203.673 Y173.203 E7.4323
G1 X203.470 Y173.776 E7.4637
G1 X203.249 Y174.251 E7.4908
G1 X202.970 Y174.735 E7.5196
G1 X202.670 Y175.164 E7.5467
G1 X202.314 Y175.590 E7.5753
G1 X201.944 Y175.961 E7.6024
G1 X201.519 Y176.319 E7.6311
G1 X201.091 Y176.620 E7.6581
G1 X200.602 Y176.902 E7.6873
G1 X200.128 Y177.123 E7.7143
G1 X199.608 Y177.313 E7.7429
G1 X199.103 Y177.449 E7.7699
G1 X198.552 Y177.547 E7.7988
G1 X197.750 Y177.605 E7.8403
G1 X107.250 Y177.605 E12.5143
G1 X106.448 Y177.547 E12.5558
G1 X105.897 Y177.449 E12.5847
G1 X105.392 Y177.313 E12.6117
G1 X104.872 Y177.123 E12.6403
G1 X104.398 Y176.902 E12.6673
G1 X103.909 Y176.620 E12.6965
G1 X103.481 Y176.319 E12.7235
G1 X103.056 Y175.961 E12.7522
G1 X102.686 Y175.590 E12.7792
G1 X102.330 Y175.164 E12.8079
G1 X102.030 Y174.735 E12.8349
G1 X101.751 Y174.251 E12.8638
G1 X101.530 Y173.776 E12.8909
G1 X101.339 Y173.249 E12.9198
G1 X101.204 Y172.742 E12.9469
G1 X101.108 Y172.200 E12.9753
G1 X101.050 Y171.397 E13.0169
G1 X101.062 Y133.322 E14.9833
G1 X101.108 Y132.800 E15.0104
G1 X101.204 Y132.258 E15.0388
G1 X101.339 Y131.751 E15.0659
G1 X101.530 Y131.224 E15.0949
G1 X101.751 Y130.749 E15.1219
G1 X102.030 Y130.265 E15.1508
G1 X102.330 Y129.836 E15.1778
G1 X102.686 Y129.410 E15.2065
G1 X103.056 Y129.039 E15.2335
G1 X103.481 Y128.681 E15.2622
;PRINTING: V2 Box Top.stl
;PRINTING_ID: 0
G1 F1200 E14.2622
G0 F6000 X105.969 Y132.067
;TYPE:WALL-INNER
;WIDTH:0.400
G1 F1200 E15.2622
G1 F1800 X106.253 Y131.868 E15.2801
G1 X106.569 Y131.720 E15.2982
G1 X106.904 Y131.629 E15.3161
G1 X107.295 Y131.595 E15.3364
G1 X197.705 Y131.595 E20.0057
G1 X198.096 Y131.629 E20.0259
G1 X198.431 Y131.720 E20.0438
G1 X198.747 Y131.868 E20.0619
G1 X199.031 Y132.067 E20.0798
G1 X199.278 Y132.315 E20.0979
G1 X199.478 Y132.600 E20.1158
G1 X199.625 Y132.916 E20.1338
G1 X199.716 Y133.256 E20.1520
G1 X199.750 Y133.648 E20.1723
G1 X199.750 Y171.352 E22.1196
G1 X199.718 Y171.704 E22.1378
G1 X199.622 Y172.091 E22.1584
G1 X199.478 Y172.399 E22.1760
G1 X199.278 Y172.685 E22.1940
G1 X199.031 Y172.933 E22.2121
G1 X198.747 Y173.132 E22.2300
G1 X198.431 Y173.280 E22.2480
G1 X198.096 Y173.371 E22.2660
G1 X197.705 Y173.405 E22.2862
G1 X107.295 Y173.405 E26.9555
G1 X106.904 Y173.371 E26.9758
G1 X106.569 Y173.280 E26.9937
G1 X106.253 Y173.132 E27.0117
G1 X105.969 Y172.933 E27.0296
G1 X105.722 Y172.685 E27.0477
G1 X105.522 Y172.400 E27.0657
G1 X105.375 Y172.084 E27.0837
G1 X105.284 Y171.744 E27.1019
G1 X105.250 Y171.352 E27.1222
G1 X105.250 Y133.648 E29.0695
G1 X105.284 Y133.256 E29.0898
G1 X105.375 Y132.916 E29.1080
G1 X105.522 Y132.600 E29.1260
G1 X105.722 Y132.315 E29.1439
G1 X105.969 Y132.067 E29.1620
G1 F1200 E28.1620
G0 F6000 X121.147 Y154.291
G1 F1200 E29.1620
G1 F1800 X120.577 Y154.691 E29.1980
G1 X120.082 Y155.185 E29.2341
G1 X119.682 Y155.759 E29.2702
G1 X119.388 Y156.393 E29.3063
G1 X119.208 Y157.066 E29.3423
G1 X119.145 Y157.763 E29.3784
G1 X119.208 Y158.460 E29.4146
G1 X119.388 Y159.134 E29.4506
G1 X119.682 Y159.767 E29.4867
G1 X120.073 Y160.327 E29.5219
G1 X120.574 Y160.834 E29.5587
G1 X121.147 Y161.236 E29.5949
G1 X121.779 Y161.532 E29.6309
G1 X122.454 Y161.713 E29.6670
G1 X123.152 Y161.776 E29.7032
G1 X123.864 Y161.710 E29.7402
G1 X124.534 Y161.526 E29.7760
G1 X125.153 Y161.238 E29.8113
G1 X125.725 Y160.835 E29.8474
G1 X126.218 Y160.341 E29.8835
G1 X126.618 Y159.767 E29.9196
G1 X126.912 Y159.134 E29.9557
G1 X127.092 Y158.460 E29.9917
G1 X127.155 Y157.763 E30.0278
G1 X127.092 Y157.066 E30.0640
G1 X126.912 Y156.393 E30.1000
G1 X126.618 Y155.759 E30.1360
G1 X126.227 Y155.199 E30.1713
G1 X125.726 Y154.692 E30.2081
G1 X125.153 Y154.291 E30.2442
G1 X124.521 Y153.994 E30.2803
G1 X123.846 Y153.813 E30.3164
G1 X123.148 Y153.751 E30.3526
G1 X122.439 Y153.816 E30.3894
G1 X121.779 Y153.994 E30.4247
G1 X121.147 Y154.291 E30.4607
G1 F1200 E29.4607
G0 F6000 X181.715 Y156.510
G1 F1200 E30.4607
G1 F1800 X182.121 Y158.030 E30.5420
G1 X183.232 Y159.141 E30.6231
G1 X184.750 Y159.550 E30.7043
G1 X186.268 Y159.141 E30.7855
G1 X187.379 Y158.030 E30.8667
G1 X187.785 Y156.510 E30.9479
G1 X187.379 Y154.991 E31.0291
G1 X186.270 Y153.879 E31.1102
G1 X184.750 Y153.470 E31.1915
G1 X183.230 Y153.879 E31.2728
G1 X182.121 Y154.991 E31.3539
G1 X181.715 Y156.510 E31.4351
G1 F1200 E30.4351
G0 F6000 X189.315 Y156.510
G1 F1200 E31.4351
G1 F1800 X189.641 Y157.729 E31.5003
G1 X190.530 Y158.620 E31.5653
G1 X191.750 Y158.949 E31.6306
G1 X192.970 Y158.620 E31.6958
G1 X193.859 Y157.729 E31.7608
G1 X194.185 Y156.510 E31.8260
G1 X193.859 Y155.291 E31.8912
G1 X192.969 Y154.400 E31.9562
G1 X191.750 Y154.072 E32.0214
G1 X190.531 Y154.400 E32.0866
G1 X189.641 Y155.291 E32.1516
G1 X189.315 Y156.510 E32.2168
G1 F1200 E31.2168
G0 F6000 X190.530 Y150.600
G1 F1200 E32.2168
G1 F1800 X191.750 Y150.929 E32.2821
G1 X192.970 Y150.600 E32.3473
G1 X193.859 Y149.709 E32.4123
G1 X194.185 Y148.490 E32.4775
G1 X193.859 Y147.271 E32.5427
G1 X192.969 Y146.380 E32.6077
G1 X191.750 Y146.052 E32.6729
G1 X190.531 Y146.380 E32.7381
G1 X189.641 Y147.271 E32.8031
G1 X189.315 Y148.490 E32.8683
G1 X189.641 Y149.709 E32.9335
G1 X190.530 Y150.600 E32.9985
G1 F1200 E31.9985
G0 F6000 X187.379 Y150.010
G1 F1200 E32.9985
G1 F1800 X187.785 Y148.490 E33.0797
G1 X187.379 Y146.971 E33.1609
G1 X186.270 Y145.859 E33.2420
G1 X184.750 Y145.450 E33.3233
G1 X183.230 Y145.859 E33.4046
G1 X182.121 Y146.971 E33.4857
G1 X181.715 Y148.490 E33.5669
G1 X182.121 Y150.010 E33.6482
G1 X183.232 Y151.121 E33.7293
G1 X184.750 Y151.530 E33.8105
G1 X186.268 Y151.121 E33.8917
G1 X187.379 Y150.010 E33.9729
G1 F1200 E32.9729
G0 F6000 X186.268 Y143.101
G1 F1200 E33.9729
G1 F1800 X187.379 Y141.990 E34.0540
G1 X187.785 Y140.470 E34.1353
G1 X187.379 Y138.951 E34.2165
G1 X186.270 Y137.839 E34.2976
G1 X184.750 Y137.430 E34.3789
G1 X183.230 Y137.839 E34.4602
G1 X182.121 Y138.951 E34.5413
G1 X181.715 Y140.470 E34.6225
G1 X182.121 Y141.990 E34.7037
G1 X183.232 Y143.101 E34.7849
G1 X184.750 Y143.510 E34.8661
G1 X186.268 Y143.101 E34.9473
G1 F1200 E33.9473
G0 F6000 X184.750 Y161.490
G1 F1200 E34.9473
G1 F1800 X183.230 Y161.899 E35.0286
G1 X182.121 Y163.011 E35.1097
G1 X181.715 Y164.530 E35.1909
G1 X182.121 Y166.050 E35.2721
G1 X183.232 Y167.161 E35.3533
G1 X184.750 Y167.570 E35.4345
G1 X186.268 Y167.161 E35.5157
G1 X187.379 Y166.050 E35.5968
G1 X187.785 Y164.530 E35.6781
G1 X187.379 Y163.011 E35.7593
G1 X186.270 Y161.899 E35.8404
G1 X184.750 Y161.490 E35.9217
G0 F6000 X184.750 Y161.904
G1 F1800 X183.438 Y162.257 E35.9918
G1 X182.480 Y163.218 E36.0619
G1 X182.129 Y164.530 E36.1321
G1 X182.480 Y165.843 E36.2023
G1 X183.439 Y166.803 E36.2723
G1 X184.750 Y167.156 E36.3425
G1 X186.061 Y166.803 E36.4126
G1 X187.020 Y165.843 E36.4827
G1 X187.371 Y164.530 E36.5528
G1 X187.020 Y163.218 E36.6230
G1 X186.062 Y162.257 E36.6931
G1 X184.750 Y161.904 E36.7632
G1 F1200 E35.7632
G0 F6000 X184.750 Y159.136
G1 F1200 E36.7632
G1 F1800 X186.061 Y158.783 E36.8334
G1 X187.020 Y157.823 E36.9034
G1 X187.371 Y156.510 E36.9736
G1 X187.020 Y155.198 E37.0438
G1 X186.062 Y154.237 E37.1139
G1 X184.750 Y153.884 E37.1840
G1 X183.438 Y154.237 E37.2542
G1 X182.480 Y155.198 E37.3243
G1 X182.129 Y156.510 E37.3944
G1 X182.480 Y157.823 E37.4646
G1 X183.439 Y158.783 E37.5347
G1 X184.750 Y159.136 E37.6048
G1 F1200 E36.6048
G0 F6000 X190.000 Y157.522
G1 F1200 E37.6048
G1 F1800 X190.738 Y158.262 E37.6588
G1 X191.750 Y158.535 E37.7129
G1 X192.762 Y158.262 E37.7670
G1 X193.500 Y157.522 E37.8210
G1 X193.771 Y156.510 E37.8751
G1 X193.500 Y155.498 E37.9292
G1 X192.762 Y154.758 E37.9832
G1 X191.750 Y154.486 E38.0373
G1 X190.738 Y154.758 E38.0915
G1 X190.000 Y155.498 E38.1454
G1 X189.729 Y156.510 E38.1995
G1 X190.000 Y157.522 E38.2536
G1 F1200 E37.2536
G0 F6000 X191.750 Y150.515
G1 F1200 E38.2536
G1 F1800 X192.762 Y150.242 E38.3078
G1 X193.500 Y149.502 E38.3617
G1 X193.771 Y148.490 E38.4159
G1 X193.500 Y147.478 E38.4700
G1 X192.762 Y146.738 E38.5239
G1 X191.750 Y146.466 E38.5781
G1 X190.738 Y146.738 E38.6322
G1 X190.000 Y147.478 E38.6862
G1 X189.729 Y148.490 E38.7403
G1 X190.000 Y149.502 E38.7944
G1 X190.738 Y150.242 E38.8483
G1 X191.750 Y150.515 E38.9025
G1 F1200 E37.9025
G0 F6000 X187.020 Y149.803
G1 F1200 E38.9025
G1 F1800 X187.371 Y148.490 E38.9727
G1 X187.020 Y147.178 E39.0428
G1 X186.062 Y146.217 E39.1129
G1 X184.750 Y145.864 E39.1831
G1 X183.438 Y146.217 E39.2532
G1 X182.480 Y147.178 E39.3233
G1 X182.129 Y148.490 E39.3935
G1 X182.480 Y149.803 E39.4636
G1 X183.439 Y150.763 E39.5337
G1 X184.750 Y151.116 E39.6038
G1 X186.061 Y150.763 E39.6740
G1 X187.020 Y149.803 E39.7440
G1 F1200 E38.7440
G0 F6000 X184.750 Y143.096
G1 F1200 E39.7440
G1 F1800 X186.061 Y142.743 E39.8142
G1 X187.020 Y141.783 E39.8842
G1 X187.371 Y140.470 E39.9544
G1 X187.020 Y139.158 E40.0246
G1 X186.062 Y138.197 E40.0947
G1 X184.750 Y137.844 E40.1648
G1 X183.438 Y138.197 E40.2350
G1 X182.480 Y139.158 E40.3051
G1 X182.129 Y140.470 E40.3752
G1 X182.480 Y141.783 E40.4454
G1 X183.439 Y142.743 E40.5155
G1 X184.750 Y143.096 E40.5856
G1 F1200 E39.5856
G0 F6000 X197.723 Y131.195
G1 F1200 E40.5856
G1 F1800 X198.166 Y131.234 E40.6086
G1 X198.569 Y131.343 E40.6301
G1 X198.948 Y131.520 E40.6517
G1 X199.290 Y131.760 E40.6733
G1 X199.586 Y132.057 E40.6950
G1 X199.826 Y132.400 E40.7166
G1 X200.002 Y132.779 E40.7382
G1 X200.111 Y133.186 E40.7599
G1 X200.150 Y133.630 E40.7830
G1 X200.150 Y171.370 E42.7321
G1 X200.114 Y171.771 E42.7529
G1 X200.001 Y172.225 E42.7770
G1 X199.826 Y172.600 E42.7984
G1 X199.586 Y172.943 E42.8200
G1 X199.290 Y173.240 E42.8417
G1 X198.948 Y173.480 E42.8632
G1 X198.569 Y173.657 E42.8848
G1 X198.166 Y173.766 E42.9064
G1 X197.723 Y173.805 E42.9294
G1 X107.277 Y173.805 E47.6005
G1 X106.834 Y173.766 E47.6235
G1 X106.431 Y173.657 E47.6451
G1 X106.052 Y173.480 E47.6667
G1 X105.710 Y173.240 E47.6882
G1 X105.414 Y172.943 E47.7099
G1 X105.174 Y172.600 E47.7315
G1 X104.998 Y172.221 E47.7531
G1 X104.889 Y171.814 E47.7749
G1 X104.850 Y171.370 E47.7979
G1 X104.850 Y133.630 E49.7470
G1 X104.889 Y133.186 E49.7700
G1 X104.998 Y132.779 E49.7918
G1 X105.174 Y132.400 E49.8133
G1 X105.414 Y132.057 E49.8350
G1 X105.710 Y131.760 E49.8566
G1 X106.052 Y131.520 E49.8782
G1 X106.431 Y131.343 E49.8998
G1 X106.834 Y131.234 E49.9214
G1 X107.277 Y131.195 E49.9443
G1 X197.723 Y131.195 E54.6155
G1 F1200 E53.6155
G0 F6000 X126.535 Y156.530
G1 F1200 E54.6155
G1 F1800 X126.270 Y155.959 E54.6480
G1 X125.919 Y155.456 E54.6797
G1 X125.467 Y154.999 E54.7129
G1 X124.952 Y154.638 E54.7453
G1 X124.383 Y154.371 E54.7778
G1 X123.776 Y154.208 E54.8103
G1 X123.149 Y154.153 E54.8428
G1 X122.510 Y154.211 E54.8759
G1 X121.917 Y154.371 E54.9076
G1 X121.348 Y154.638 E54.9401
G1 X120.835 Y154.998 E54.9725
G1 X120.390 Y155.443 E55.0050
G1 X120.030 Y155.959 E55.0375
G1 X119.765 Y156.530 E55.0700
G1 X119.603 Y157.136 E55.1024
G1 X119.547 Y157.763 E55.1349
G1 X119.603 Y158.390 E55.1674
G1 X119.765 Y158.997 E55.1998
G1 X120.030 Y159.567 E55.2323
G1 X120.381 Y160.070 E55.2640
G1 X120.833 Y160.527 E55.2972
G1 X121.348 Y160.889 E55.3297
G1 X121.917 Y161.155 E55.3621
G1 X122.524 Y161.318 E55.3946
G1 X123.151 Y161.374 E55.4271
G1 X123.792 Y161.315 E55.4603
G1 X124.396 Y161.149 E55.4927
G1 X124.952 Y160.890 E55.5244
G1 X125.466 Y160.528 E55.5568
G1 X125.910 Y160.083 E55.5893
G1 X126.270 Y159.567 E55.6218
G1 X126.535 Y158.997 E55.6543
G1 X126.697 Y158.390 E55.6867
G1 X126.753 Y157.763 E55.7192
G1 X126.697 Y157.136 E55.7517
G1 X126.535 Y156.530 E55.7841
G0 F6000 X126.158 Y156.667
;TYPE:WALL-OUTER
;WIDTH:0.400
G1 F1800 X125.922 Y156.159 E55.8130
G1 X125.611 Y155.713 E55.8411
G1 X125.208 Y155.306 E55.8707
G1 X124.751 Y154.985 E55.8996
G1 X124.245 Y154.748 E55.9284
G1 X123.706 Y154.603 E55.9572
G1 X123.150 Y154.555 E55.9861
G1 X122.581 Y154.606 E56.0156
G1 X122.055 Y154.748 E56.0437
G1 X121.549 Y154.985 E56.0726
G1 X121.093 Y155.305 E56.1013
G1 X120.698 Y155.701 E56.1302
G1 X120.378 Y156.159 E56.1591
G1 X120.142 Y156.667 E56.1880
G1 X119.998 Y157.206 E56.2168
G1 X119.949 Y157.763 E56.2457
G1 X119.998 Y158.320 E56.2746
G1 X120.142 Y158.860 E56.3034
G1 X120.378 Y159.367 E56.3323
G1 X120.689 Y159.813 E56.3604
G1 X121.092 Y160.220 E56.3900
G1 X121.549 Y160.542 E56.4188
G1 X122.055 Y160.778 E56.4477
G1 X122.594 Y160.923 E56.4765
G1 X123.150 Y160.972 E56.5053
G1 X123.720 Y160.920 E56.5349
G1 X124.257 Y160.772 E56.5637
G1 X124.751 Y160.542 E56.5918
G1 X125.207 Y160.221 E56.6206
G1 X125.602 Y159.825 E56.6495
G1 X125.922 Y159.367 E56.6784
G1 X126.158 Y158.860 E56.7072
G1 X126.302 Y158.320 E56.7361
G1 X126.351 Y157.763 E56.7650
G1 X126.302 Y157.206 E56.7939
G1 X126.158 Y156.667 E56.8227
G1 F1200 E55.8227
G0 F6000 X107.259 Y174.205
G1 F1200 E56.8227
G1 F1800 X106.764 Y174.161 E56.8483
G1 X106.293 Y174.034 E56.8735
G1 X105.851 Y173.828 E56.8987
G1 X105.451 Y173.547 E56.9240
G1 X105.106 Y173.201 E56.9492
G1 X104.826 Y172.801 E56.9744
G1 X104.620 Y172.358 E56.9996
G1 X104.494 Y171.884 E57.0250
G1 X104.450 Y171.388 E57.0507
G1 X104.450 Y133.612 E59.0017
G1 X104.494 Y133.116 E59.0274
G1 X104.620 Y132.642 E59.0527
G1 X104.826 Y132.199 E59.0779
G1 X105.106 Y131.799 E59.1032
G1 X105.451 Y131.453 E59.1284
G1 X105.851 Y131.172 E59.1536
G1 X106.293 Y130.966 E59.1788
G1 X106.764 Y130.839 E59.2040
G1 X107.259 Y130.795 E59.2297
G1 X197.741 Y130.795 E63.9027
G1 X198.236 Y130.839 E63.9284
G1 X198.707 Y130.966 E63.9535
G1 X199.149 Y131.172 E63.9787
G1 X199.549 Y131.453 E64.0040
G1 X199.894 Y131.799 E64.0292
G1 X200.174 Y132.199 E64.0544
G1 X200.380 Y132.642 E64.0797
G1 X200.506 Y133.116 E64.1050
G1 X200.550 Y133.612 E64.1307
G1 X200.550 Y171.388 E66.0817
G1 X200.510 Y171.838 E66.1050
G1 X200.380 Y172.359 E66.1327
G1 X200.174 Y172.801 E66.1579
G1 X199.894 Y173.201 E66.1831
G1 X199.549 Y173.547 E66.2084
G1 X199.149 Y173.828 E66.2336
G1 X198.707 Y174.034 E66.2588
G1 X198.236 Y174.161 E66.2840
G1 X197.741 Y174.205 E66.3097
G1 X107.259 Y174.205 E70.9827
G1 F1200 E69.9827
G0 F6000 X182.543 Y164.530
G1 F1200 E70.9827
G1 F1800 X182.839 Y165.636 E71.0418
G1 X183.646 Y166.445 E71.1008
G1 X184.750 Y166.742 E71.1599
G1 X185.854 Y166.445 E71.2189
G1 X186.661 Y165.636 E71.2779
G1 X186.957 Y164.530 E71.3371
G1 X186.661 Y163.425 E71.3961
G1 X185.854 Y162.615 E71.4552
G1 X184.750 Y162.318 E71.5142
G1 X183.646 Y162.615 E71.5733
G1 X182.839 Y163.425 E71.6323
G1 X182.543 Y164.530 E71.6914
G1 F1200 E70.6914
G0 F6000 X183.646 Y158.425
G1 F1200 E71.6914
G1 F1800 X184.750 Y158.722 E71.7505
G1 X185.854 Y158.425 E71.8095
G1 X186.661 Y157.616 E71.8685
