;Sliced by ideaMaker 4.1.1.5050, 2021-07-08 19:13:58 UTC-0400
;Dimension: 305.000 305.000 305.000 0.400
;Plate Shape: 0
;Origin Center: 0
;Extruder Offset #1: 25.000 0.000
;Filament Diameter #1: 1.720
;Filament Diameter #2: 1.750
;Filament Compensation #1: 94.00
;Filament Compensation #2: 100.00
;Filament Density #1: 1240.00
;Filament Density #2: 1240.00
;Bounding Box: 101.050 203.950 104.488 200.512 0.000 24.900
;Model Gap: 0.000
M221 T0 S94.00
G21
G90
M82
M107
M190 S50
M42 P8 S255
M109 S215
G28 X0 Y0
G28 Z0
G1 Z15.0 F6000.0
G92 E0
G1 F140 E29
G1 X20 Y0 F140 E30
G92 E0
G1 F6000.0
M117 Printing...
M1001
;TOTAL_NUM: 1
;PRINTING_TIME: 0
;REMAINING_TIME: 6846
;LAYER:0
;Z:0.300
;HEIGHT:0.300
M106 S0
M140 S50
;PRINTING: NON-OBJECT
;PRINTING_ID: -1
G1 F1200 E-1.0000
G0 F6000 X103.056 Y106.132
G0 F600 Z0.300
;TYPE:SKIRT
;WIDTH:0.400
G1 F1200 E0.0000
G1 F1800 X103.481 Y105.774 E0.0287
G1 X103.909 Y105.473 E0.0557
G1 X104.398 Y105.191 E0.0849
G1 X104.872 Y104.970 E0.1119
G1 X105.392 Y104.780 E0.1405
G1 X105.897 Y104.644 E0.1675
G1 X106.448 Y104.546 E0.1964
G1 X107.250 Y104.488 E0.2379
G1 X198.031 Y104.500 E4.9264
G1 X198.552 Y104.546 E4.9534
G1 X199.103 Y104.644 E4.9823
G1 X199.608 Y104.780 E5.0093
G1 X200.128 Y104.970 E5.0379
G1 X200.602 Y105.191 E5.0649
G1 X201.091 Y105.473 E5.0941
G1 X201.519 Y105.774 E5.1211
G1 X201.944 Y106.132 E5.1498
G1 X202.314 Y106.503 E5.1768
G1 X202.670 Y106.929 E5.2055
G1 X202.970 Y107.358 E5.2325
G1 X203.249 Y107.842 E5.2614
G1 X203.470 Y108.317 E5.2885
G1 X203.661 Y108.844 E5.3174
G1 X203.796 Y109.351 E5.3445
G1 X203.892 Y109.893 E5.3729
G1 X203.950 Y110.696 E5.4145
G1 X203.950 Y148.490 E7.3664
G1 X203.896 Y149.246 E7.4055
G1 X203.812 Y149.741 E7.4315
G1 X203.673 Y150.296 E7.4610
G1 X203.470 Y150.869 E7.4924
G1 X203.249 Y151.344 E7.5195
G1 X202.970 Y151.828 E7.5483
G1 X202.670 Y152.257 E7.5754
G1 X202.467 Y152.500 E7.5917
G1 X202.670 Y152.743 E7.6081
G1 X202.968 Y153.169 E7.6349
G1 X203.247 Y153.653 E7.6638
G1 X203.468 Y154.128 E7.6908
G1 X203.657 Y154.647 E7.7194
G1 X203.793 Y155.153 E7.7464
G1 X203.891 Y155.704 E7.7753
G1 X203.950 Y156.519 E7.8175
G1 X203.950 Y194.304 E9.7690
G1 X203.892 Y195.106 E9.8105
G1 X203.797 Y195.645 E9.8388
G1 X203.663 Y196.150 E9.8657
G1 X203.475 Y196.672 E9.8944
G1 X203.255 Y197.148 E9.9215
G1 X202.972 Y197.639 E9.9507
G1 X202.672 Y198.068 E9.9778
G1 X202.319 Y198.491 E10.0062
G1 X201.950 Y198.862 E10.0333
G1 X201.525 Y199.220 E10.0620
G1 X201.094 Y199.524 E10.0892
G1 X200.602 Y199.809 E10.1186
G1 X200.128 Y200.030 E10.1456
G1 X199.608 Y200.220 E10.1742
G1 X199.103 Y200.356 E10.2012
G1 X198.552 Y200.454 E10.2301
G1 X197.750 Y200.512 E10.2716
G1 X107.250 Y200.512 E14.9455
G1 X106.448 Y200.454 E14.9871
G1 X105.897 Y200.356 E15.0160
G1 X105.392 Y200.220 E15.0430
G1 X104.872 Y200.030 E15.0716
G1 X104.398 Y199.809 E15.0986
G1 X103.909 Y199.527 E15.1277
G1 X103.481 Y199.226 E15.1548
G1 X103.056 Y198.868 E15.1835
G1 X102.689 Y198.500 E15.2103
G1 X102.335 Y198.078 E15.2388
G1 X102.034 Y197.649 E15.2658
G1 X101.753 Y197.161 E15.2949
G1 X101.532 Y196.686 E15.3220
G1 X101.343 Y196.168 E15.3504
G1 X101.207 Y195.663 E15.3774
G1 X101.109 Y195.111 E15.4064
G1 X101.050 Y194.295 E15.4487
G1 X101.050 Y156.510 E17.4001
G1 X101.107 Y155.715 E17.4412
G1 X101.203 Y155.169 E17.4699
G1 X101.338 Y154.662 E17.4970
G1 X101.525 Y154.142 E17.5255
G1 X101.745 Y153.666 E17.5526
G1 X102.028 Y153.175 E17.5819
G1 X102.328 Y152.746 E17.6089
G1 X102.533 Y152.500 E17.6254
G1 X102.330 Y152.257 E17.6418
G1 X102.030 Y151.828 E17.6688
G1 X101.751 Y151.344 E17.6977
G1 X101.530 Y150.869 E17.7247
G1 X101.339 Y150.342 E17.7537
G1 X101.204 Y149.835 E17.7808
G1 X101.108 Y149.293 E17.8092
G1 X101.050 Y148.490 E17.8508
G1 X101.050 Y110.696 E19.8027
G1 X101.108 Y109.893 E19.8443
G1 X101.204 Y109.351 E19.8727
G1 X101.339 Y108.844 E19.8998
G1 X101.530 Y108.317 E19.9287
G1 X101.751 Y107.842 E19.9558
G1 X102.030 Y107.358 E19.9847
G1 X102.330 Y106.929 E20.0117
G1 X102.686 Y106.503 E20.0404
G1 X103.056 Y106.132 E20.0674
;PRINTING: V2 Box.stl
;PRINTING_ID: 0
G1 F1200 E19.0674
G0 F6000 X105.969 Y109.160
;TYPE:WALL-INNER
;WIDTH:0.400
G1 F1200 E20.0674
G1 F1800 X106.253 Y108.961 E20.0853
G1 X106.569 Y108.813 E20.1034
G1 X106.904 Y108.722 E20.1213
G1 X107.295 Y108.688 E20.1416
G1 X197.705 Y108.688 E24.8108
G1 X198.096 Y108.722 E24.8311
G1 X198.431 Y108.813 E24.8490
G1 X198.747 Y108.961 E24.8671
G1 X199.031 Y109.160 E24.8850
G1 X199.278 Y109.408 E24.9030
G1 X199.478 Y109.693 E24.9210
G1 X199.625 Y110.009 E24.9390
G1 X199.716 Y110.349 E24.9572
G1 X199.750 Y110.741 E24.9775
G1 X199.750 Y148.445 E26.9248
G1 X199.718 Y148.797 E26.9430
G1 X199.622 Y149.184 E26.9636
G1 X199.478 Y149.492 E26.9812
G1 X199.278 Y149.778 E26.9992
G1 X199.031 Y150.026 E27.0173
G1 X198.747 Y150.225 E27.0352
G1 X198.431 Y150.373 E27.0532
G1 X198.096 Y150.464 E27.0711
G1 X197.705 Y150.498 E27.0914
G1 X107.295 Y150.498 E31.7607
G1 X106.904 Y150.464 E31.7810
G1 X106.569 Y150.373 E31.7989
G1 X106.253 Y150.225 E31.8169
G1 X105.969 Y150.026 E31.8348
G1 X105.722 Y149.778 E31.8529
G1 X105.522 Y149.493 E31.8709
G1 X105.375 Y149.177 E31.8889
G1 X105.284 Y148.837 E31.9071
G1 X105.250 Y148.445 E31.9274
G1 X105.250 Y110.741 E33.8746
G1 X105.284 Y110.349 E33.8950
G1 X105.375 Y110.009 E33.9131
G1 X105.522 Y109.693 E33.9311
G1 X105.722 Y109.408 E33.9491
G1 X105.969 Y109.160 E33.9672
G1 F1200 E32.9672
G0 F6000 X121.147 Y131.381
G1 F1200 E33.9672
G1 F1800 X120.575 Y131.784 E34.0033
G1 X120.082 Y132.278 E34.0394
G1 X119.682 Y132.852 E34.0755
G1 X119.388 Y133.485 E34.1116
G1 X119.208 Y134.159 E34.1476
G1 X119.145 Y134.856 E34.1837
G1 X119.208 Y135.553 E34.2199
G1 X119.388 Y136.227 E34.2559
G1 X119.682 Y136.860 E34.2920
G1 X120.073 Y137.420 E34.3272
G1 X120.574 Y137.927 E34.3640
G1 X121.147 Y138.329 E34.4002
G1 X121.779 Y138.625 E34.4362
G1 X122.454 Y138.806 E34.4723
G1 X123.152 Y138.869 E34.5085
G1 X123.864 Y138.803 E34.5454
G1 X124.534 Y138.619 E34.5813
G1 X125.153 Y138.331 E34.6166
G1 X125.725 Y137.928 E34.6527
G1 X126.218 Y137.434 E34.6888
G1 X126.618 Y136.860 E34.7249
G1 X126.912 Y136.227 E34.7610
G1 X127.092 Y135.553 E34.7970
G1 X127.155 Y134.856 E34.8331
G1 X127.092 Y134.159 E34.8693
G1 X126.912 Y133.485 E34.9053
G1 X126.618 Y132.852 E34.9413
G1 X126.227 Y132.292 E34.9766
G1 X125.726 Y131.785 E35.0134
G1 X125.153 Y131.383 E35.0496
G1 X124.521 Y131.087 E35.0856
G1 X123.846 Y130.906 E35.1217
G1 X123.148 Y130.844 E35.1579
G1 X122.436 Y130.909 E35.1948
G1 X121.766 Y131.093 E35.2307
G1 X121.147 Y131.381 E35.2660
G1 F1200 E34.2660
G0 F6000 X181.715 Y133.603
G1 F1200 E35.2660
G1 F1800 X182.121 Y135.122 E35.3472
G1 X183.230 Y136.234 E35.4283
G1 X184.750 Y136.643 E35.5096
G1 X186.270 Y136.234 E35.5909
G1 X187.379 Y135.122 E35.6720
G1 X187.785 Y133.603 E35.7532
G1 X187.379 Y132.083 E35.8344
G1 X186.268 Y130.969 E35.9157
G1 X184.750 Y130.563 E35.9968
G1 X183.232 Y130.969 E36.0780
G1 X182.121 Y132.083 E36.1593
G1 X181.715 Y133.603 E36.2405
G1 F1200 E35.2405
G0 F6000 X189.315 Y133.603
G1 F1200 E36.2405
G1 F1800 X189.641 Y134.822 E36.3057
G1 X190.531 Y135.713 E36.3707
G1 X191.750 Y136.041 E36.4359
G1 X192.969 Y135.713 E36.5011
G1 X193.859 Y134.822 E36.5661
G1 X194.185 Y133.603 E36.6313
G1 X193.859 Y132.384 E36.6965
G1 X192.970 Y131.492 E36.7615
G1 X191.752 Y131.164 E36.8267
G1 X191.428 Y131.251 E36.8440
G1 X190.530 Y131.492 E36.8920
G1 X189.641 Y132.384 E36.9571
G1 X189.315 Y133.603 E37.0222
G1 F1200 E36.0222
G0 F6000 X190.531 Y127.693
G1 F1200 E37.0222
G1 F1800 X191.750 Y128.021 E37.0874
G1 X192.969 Y127.693 E37.1526
G1 X193.859 Y126.802 E37.2177
G1 X194.185 Y125.583 E37.2828
G1 X193.859 Y124.364 E37.3480
G1 X192.970 Y123.472 E37.4130
G1 X191.752 Y123.144 E37.4782
G1 X191.428 Y123.231 E37.4955
G1 X190.530 Y123.472 E37.5435
G1 X189.641 Y124.364 E37.6086
G1 X189.315 Y125.583 E37.6737
G1 X189.641 Y126.802 E37.7389
G1 X190.531 Y127.693 E37.8039
G1 F1200 E36.8039
G0 F6000 X187.379 Y127.102
G1 F1200 E37.8039
G1 F1800 X187.785 Y125.583 E37.8851
G1 X187.379 Y124.063 E37.9664
G1 X186.268 Y122.952 E38.0475
G1 X184.750 Y122.543 E38.1287
G1 X184.397 Y122.638 E38.1476
G1 X183.232 Y122.952 E38.2099
G1 X182.121 Y124.063 E38.2911
G1 X181.715 Y125.583 E38.3723
G1 X182.121 Y127.102 E38.4535
G1 X183.230 Y128.214 E38.5346
G1 X184.750 Y128.623 E38.6159
G1 X186.270 Y128.214 E38.6972
G1 X187.379 Y127.102 E38.7783
G1 F1200 E37.7783
G0 F6000 X186.270 Y120.194
G1 F1200 E38.7783
G1 F1800 X187.379 Y119.082 E38.8595
G1 X187.785 Y117.563 E38.9407
G1 X187.379 Y116.043 E39.0219
G1 X186.268 Y114.929 E39.1032
G1 X184.750 Y114.523 E39.1843
G1 X183.232 Y114.929 E39.2655
G1 X182.121 Y116.043 E39.3467
G1 X181.715 Y117.563 E39.4280
G1 X182.121 Y119.082 E39.5092
G1 X183.230 Y120.194 E39.5903
G1 X184.750 Y120.603 E39.6716
G1 X186.270 Y120.194 E39.7529
G1 F1200 E38.7529
G0 F6000 X184.750 Y138.583
G1 F1200 E39.7529
G1 F1800 X183.232 Y138.989 E39.8340
G1 X182.121 Y140.103 E39.9153
G1 X181.715 Y141.623 E39.9965
G1 X182.121 Y143.142 E40.0777
G1 X183.230 Y144.254 E40.1589
G1 X184.750 Y144.663 E40.2401
G1 X186.270 Y144.254 E40.3214
G1 X187.379 Y143.142 E40.4026
G1 X187.785 Y141.623 E40.4838
G1 X187.379 Y140.103 E40.5650
G1 X186.268 Y138.989 E40.6463
G1 X184.750 Y138.583 E40.7274
G0 F6000 X184.750 Y138.997
G1 F1800 X183.439 Y139.348 E40.7975
G1 X182.480 Y140.310 E40.8677
G1 X182.129 Y141.623 E40.9379
G1 X182.480 Y142.935 E41.0080
G1 X183.438 Y143.896 E41.0781
G1 X184.750 Y144.249 E41.1482
G1 X186.062 Y143.896 E41.2184
G1 X187.020 Y142.935 E41.2885
G1 X187.371 Y141.623 E41.3586
G1 X187.020 Y140.310 E41.4288
G1 X186.061 Y139.348 E41.4990
G1 X184.750 Y138.997 E41.5691
G1 F1200 E40.5691
G0 F6000 X184.750 Y136.229
G1 F1200 E41.5691
G1 F1800 X186.062 Y135.876 E41.6392
G1 X187.020 Y134.915 E41.7093
G1 X187.371 Y133.603 E41.7795
G1 X187.020 Y132.290 E41.8497
G1 X186.061 Y131.328 E41.9198
G1 X184.750 Y130.977 E41.9899
G1 X183.439 Y131.328 E42.0600
G1 X182.480 Y132.290 E42.1301
G1 X182.129 Y133.603 E42.2003
G1 X182.480 Y134.915 E42.2705
G1 X183.438 Y135.876 E42.3406
G1 X184.750 Y136.229 E42.4107
G1 F1200 E41.4107
G0 F6000 X190.000 Y134.615
G1 F1200 E42.4107
G1 F1800 X190.738 Y135.355 E42.4647
G1 X191.750 Y135.627 E42.5188
G1 X192.762 Y135.355 E42.5729
G1 X193.500 Y134.615 E42.6269
G1 X193.771 Y133.603 E42.6810
G1 X193.500 Y132.591 E42.7351
G1 X192.762 Y131.850 E42.7891
G1 X191.752 Y131.578 E42.8432
G1 X191.531 Y131.637 E42.8550
G1 X190.738 Y131.850 E42.8974
G1 X190.000 Y132.591 E42.9514
G1 X189.729 Y133.603 E43.0055
G1 X190.000 Y134.615 E43.0596
G1 F1200 E42.0596
G0 F6000 X191.750 Y127.607
G1 F1200 E43.0596
G1 F1800 X192.762 Y127.335 E43.1137
G1 X193.500 Y126.595 E43.1677
G1 X193.771 Y125.583 E43.2218
G1 X193.500 Y124.571 E43.2759
G1 X192.762 Y123.830 E43.3299
G1 X191.752 Y123.558 E43.3840
G1 X191.531 Y123.617 E43.3958
G1 X190.738 Y123.830 E43.4382
G1 X190.000 Y124.571 E43.4922
G1 X189.729 Y125.583 E43.5463
G1 X190.000 Y126.595 E43.6004
G1 X190.738 Y127.335 E43.6544
G1 X191.750 Y127.607 E43.7085
G1 F1200 E42.7085
G0 F6000 X187.020 Y126.895
G1 F1200 E43.7085
G1 F1800 X187.371 Y125.583 E43.7786
G1 X187.020 Y124.270 E43.8488
G1 X186.061 Y123.310 E43.9189
G1 X184.750 Y122.957 E43.9890
G1 X184.501 Y123.024 E44.0024
G1 X183.439 Y123.310 E44.0592
G1 X182.480 Y124.270 E44.1292
G1 X182.129 Y125.583 E44.1994
G1 X182.480 Y126.895 E44.2696
G1 X183.438 Y127.856 E44.3396
G1 X184.750 Y128.209 E44.4098
G1 X186.062 Y127.856 E44.4800
G1 X187.020 Y126.895 E44.5501
G1 F1200 E43.5501
G0 F6000 X184.750 Y120.189
G1 F1200 E44.5501
G1 F1800 X186.062 Y119.836 E44.6202
G1 X187.020 Y118.875 E44.6903
G1 X187.371 Y117.563 E44.7605
G1 X187.020 Y116.250 E44.8306
G1 X186.061 Y115.288 E44.9008
G1 X184.750 Y114.937 E44.9709
G1 X183.439 Y115.288 E45.0410
G1 X182.480 Y116.250 E45.1111
G1 X182.129 Y117.563 E45.1813
G1 X182.480 Y118.875 E45.2515
G1 X183.438 Y119.836 E45.3216
G1 X184.750 Y120.189 E45.3917
G1 F1200 E44.3917
G0 F6000 X197.723 Y108.288
G1 F1200 E45.3917
G1 F1800 X198.166 Y108.327 E45.4147
G1 X198.569 Y108.436 E45.4363
G1 X198.948 Y108.613 E45.4579
G1 X199.290 Y108.853 E45.4794
G1 X199.586 Y109.150 E45.5011
G1 X199.826 Y109.493 E45.5227
G1 X200.002 Y109.872 E45.5443
G1 X200.111 Y110.279 E45.5661
G1 X200.150 Y110.723 E45.5891
G1 X200.150 Y148.463 E47.5382
G1 X200.114 Y148.864 E47.5590
G1 X200.001 Y149.318 E47.5831
G1 X199.826 Y149.693 E47.6045
G1 X199.586 Y150.036 E47.6261
G1 X199.290 Y150.333 E47.6478
G1 X198.948 Y150.573 E47.6694
G1 X198.569 Y150.750 E47.6910
G1 X198.166 Y150.859 E47.7125
G1 X197.723 Y150.898 E47.7355
G1 X107.277 Y150.898 E52.4066
G1 X106.834 Y150.859 E52.4296
G1 X106.431 Y150.750 E52.4512
G1 X106.052 Y150.573 E52.4728
G1 X105.710 Y150.333 E52.4944
G1 X105.414 Y150.036 E52.5160
G1 X105.174 Y149.693 E52.5376
G1 X104.998 Y149.314 E52.5592
G1 X104.889 Y148.907 E52.5810
G1 X104.850 Y148.463 E52.6040
G1 X104.850 Y110.723 E54.5531
G1 X104.889 Y110.279 E54.5761
G1 X104.998 Y109.872 E54.5979
G1 X105.174 Y109.493 E54.6195
G1 X105.414 Y109.150 E54.6411
G1 X105.710 Y108.853 E54.6627
G1 X106.052 Y108.613 E54.6843
G1 X106.431 Y108.436 E54.7059
G1 X106.834 Y108.327 E54.7275
G1 X107.277 Y108.288 E54.7504
G1 X197.723 Y108.288 E59.4216
G1 F1200 E58.4216
G0 F6000 X126.535 Y133.622
G1 F1200 E59.4216
G1 F1800 X126.270 Y133.052 E59.4541
G1 X125.919 Y132.549 E59.4857
G1 X125.467 Y132.092 E59.5189
G1 X124.952 Y131.730 E59.5514
G1 X124.383 Y131.464 E59.5839
G1 X123.776 Y131.301 E59.6163
G1 X123.149 Y131.246 E59.6489
G1 X122.508 Y131.304 E59.6821
G1 X121.904 Y131.470 E59.7144
G1 X121.348 Y131.729 E59.7461
G1 X120.834 Y132.091 E59.7786
G1 X120.390 Y132.536 E59.8111
G1 X120.030 Y133.052 E59.8435
G1 X119.765 Y133.622 E59.8760
G1 X119.603 Y134.229 E59.9085
G1 X119.547 Y134.856 E59.9410
G1 X119.603 Y135.483 E59.9735
G1 X119.765 Y136.090 E60.0059
G1 X120.030 Y136.660 E60.0384
G1 X120.381 Y137.163 E60.0701
G1 X120.833 Y137.620 E60.1033
G1 X121.348 Y137.982 E60.1358
G1 X121.917 Y138.248 E60.1682
G1 X122.524 Y138.411 E60.2007
G1 X123.151 Y138.467 E60.2332
G1 X123.792 Y138.408 E60.2664
G1 X124.396 Y138.242 E60.2988
G1 X124.952 Y137.983 E60.3305
G1 X125.466 Y137.621 E60.3629
G1 X125.910 Y137.176 E60.3954
G1 X126.270 Y136.660 E60.4279
G1 X126.535 Y136.090 E60.4603
G1 X126.697 Y135.483 E60.4928
G1 X126.753 Y134.856 E60.5253
G1 X126.697 Y134.229 E60.5578
G1 X126.535 Y133.622 E60.5903
G0 F6000 X126.158 Y133.759
;TYPE:WALL-OUTER
;WIDTH:0.400
G1 F1800 X125.922 Y133.252 E60.6191
G1 X125.611 Y132.806 E60.6472
G1 X125.208 Y132.399 E60.6768
G1 X124.751 Y132.077 E60.7057
G1 X124.245 Y131.841 E60.7345
G1 X123.706 Y131.696 E60.7633
G1 X123.150 Y131.648 E60.7922
G1 X122.580 Y131.699 E60.8217
G1 X122.043 Y131.847 E60.8505
G1 X121.549 Y132.077 E60.8786
G1 X121.093 Y132.398 E60.9074
G1 X120.698 Y132.794 E60.9363
G1 X120.378 Y133.252 E60.9652
G1 X120.142 Y133.759 E60.9941
G1 X119.998 Y134.299 E61.0229
G1 X119.949 Y134.856 E61.0518
G1 X119.998 Y135.413 E61.0807
G1 X120.142 Y135.953 E61.1095
G1 X120.378 Y136.460 E61.1384
G1 X120.689 Y136.906 E61.1665
G1 X121.092 Y137.313 E61.1961
G1 X121.549 Y137.635 E61.2250
G1 X122.055 Y137.871 E61.2538
G1 X122.594 Y138.016 E61.2826
G1 X123.150 Y138.065 E61.3114
G1 X123.720 Y138.013 E61.3410
G1 X124.257 Y137.865 E61.3698
G1 X124.751 Y137.635 E61.3979
G1 X125.207 Y137.314 E61.4267
G1 X125.602 Y136.918 E61.4556
G1 X125.922 Y136.460 E61.4845
G1 X126.158 Y135.953 E61.5133
G1 X126.302 Y135.413 E61.5422
G1 X126.351 Y134.856 E61.5711
G1 X126.302 Y134.299 E61.6000
G1 X126.158 Y133.759 E61.6288
G1 F1200 E60.6288
G0 F6000 X107.259 Y151.298
G1 F1200 E61.6288
G1 F1800 X106.764 Y151.254 E61.6545
G1 X106.293 Y151.127 E61.6797
G1 X105.851 Y150.921 E61.7049
G1 X105.451 Y150.640 E61.7301
G1 X105.106 Y150.294 E61.7553
G1 X104.826 Y149.894 E61.7806
G1 X104.620 Y149.451 E61.8058
G1 X104.494 Y148.977 E61.8311
G1 X104.450 Y148.481 E61.8568
G1 X104.450 Y110.705 E63.8078
G1 X104.494 Y110.209 E63.8335
G1 X104.620 Y109.735 E63.8589
G1 X104.826 Y109.292 E63.8841
G1 X105.106 Y108.892 E63.9093
G1 X105.451 Y108.546 E63.9345
G1 X105.851 Y108.265 E63.9598
G1 X106.293 Y108.059 E63.9850
G1 X106.764 Y107.932 E64.0102
G1 X107.259 Y107.888 E64.0358
G1 X197.741 Y107.888 E68.7088
