;Sliced by ideaMaker 4.1.1.5050, 2021-07-27 12:56:01 UTC-0400
;Dimension: 305.000 305.000 305.000 0.400
;Plate Shape: 0
;Origin Center: 0
;Extruder Offset #1: 25.000 0.000
;Filament Diameter #1: 1.720
;Filament Diameter #2: 1.750
;Filament Compensation #1: 94.00
;Filament Compensation #2: 100.00
;Filament Density #1: 1240.00
;Filament Density #2: 1240.00
;Bounding Box: 56.125 248.875 100.929 204.071 0.000 24.900
;Model Gap: 0.000
M221 T0 S94.00
G21
G90
M82
M107
M190 S50
M42 P8 S255
M109 S215
G28 X0 Y0
G28 Z0
G1 Z15.0 F6000.0
G92 E0
G1 F140 E29
G1 X20 Y0 F140 E30
G92 E0
G1 F6000.0
M117 Printing...
M1001
;TOTAL_NUM: 2
;PRINTING_TIME: 0
;REMAINING_TIME: 13702
;LAYER:0
;Z:0.300
;HEIGHT:0.300
M106 S0
M140 S50
;PRINTING: NON-OBJECT
;PRINTING_ID: -1
G1 F1200 E-1.0000
G0 F6000 X154.055 Y103.799
G0 F600 Z0.300
;TYPE:SKIRT
;WIDTH:0.400
G1 F1200 E0.0000
G1 F1800 X154.355 Y103.370 E0.0270
G1 X154.711 Y102.944 E0.0557
G1 X155.078 Y102.576 E0.0825
G1 X155.499 Y102.221 E0.1110
G1 X155.927 Y101.919 E0.1380
G1 X156.420 Y101.634 E0.1675
G1 X156.894 Y101.413 E0.1945
G1 X157.407 Y101.225 E0.2227
G1 X157.911 Y101.088 E0.2497
G1 X158.469 Y100.988 E0.2789
G1 X159.003 Y100.941 E0.3066
G1 X197.252 Y100.941 E2.2820
G1 X197.769 Y100.986 E2.3088
G1 X198.324 Y101.084 E2.3379
G1 X198.829 Y101.220 E2.3649
G1 X199.342 Y101.406 E2.3931
G1 X199.817 Y101.626 E2.4202
G1 X200.313 Y101.912 E2.4497
G1 X200.741 Y102.213 E2.4767
G1 X200.975 Y102.410 E2.4925
G1 X201.206 Y102.215 E2.5082
G1 X201.634 Y101.914 E2.5352
G1 X202.123 Y101.632 E2.5643
G1 X202.597 Y101.411 E2.5913
G1 X203.117 Y101.221 E2.6199
G1 X203.622 Y101.085 E2.6469
G1 X204.173 Y100.987 E2.6758
G1 X204.975 Y100.929 E2.7174
G1 X242.956 Y100.941 E4.6789
G1 X243.477 Y100.987 E4.7059
G1 X244.028 Y101.085 E4.7348
G1 X244.533 Y101.221 E4.7619
G1 X245.053 Y101.411 E4.7905
G1 X245.527 Y101.632 E4.8175
G1 X246.016 Y101.914 E4.8466
G1 X246.444 Y102.215 E4.8736
G1 X246.869 Y102.573 E4.9023
G1 X247.239 Y102.944 E4.9294
G1 X247.595 Y103.370 E4.9581
G1 X247.895 Y103.799 E4.9851
G1 X248.174 Y104.283 E5.0140
G1 X248.395 Y104.758 E5.0410
G1 X248.586 Y105.285 E5.0700
G1 X248.721 Y105.792 E5.0971
G1 X248.817 Y106.334 E5.1255
G1 X248.875 Y107.137 E5.1671
G1 X248.875 Y197.863 E9.8527
G1 X248.817 Y198.666 E9.8943
G1 X248.721 Y199.208 E9.9227
G1 X248.586 Y199.715 E9.9498
G1 X248.395 Y200.242 E9.9787
G1 X248.174 Y200.717 E10.0058
G1 X247.895 Y201.201 E10.0346
G1 X247.595 Y201.630 E10.0617
G1 X247.239 Y202.056 E10.0904
G1 X246.869 Y202.427 E10.1174
G1 X246.444 Y202.785 E10.1461
G1 X246.016 Y203.086 E10.1731
G1 X245.527 Y203.368 E10.2023
G1 X245.053 Y203.589 E10.2293
G1 X244.533 Y203.779 E10.2579
G1 X244.028 Y203.915 E10.2849
G1 X243.477 Y204.013 E10.3138
G1 X242.675 Y204.071 E10.3553
G1 X204.975 Y204.071 E12.3024
G1 X204.219 Y204.016 E12.3415
G1 X203.717 Y203.931 E12.3678
G1 X203.164 Y203.791 E12.3973
G1 X202.597 Y203.589 E12.4284
G1 X202.123 Y203.368 E12.4554
G1 X201.634 Y203.086 E12.4845
G1 X201.206 Y202.785 E12.5116
G1 X200.975 Y202.590 E12.5272
G1 X200.744 Y202.784 E12.5427
G1 X200.319 Y203.083 E12.5696
G1 X199.830 Y203.366 E12.5988
G1 X199.356 Y203.587 E12.6258
G1 X198.843 Y203.775 E12.6540
G1 X198.339 Y203.912 E12.6810
G1 X197.773 Y204.012 E12.7106
G1 X196.952 Y204.071 E12.7532
G1 X159.275 Y204.071 E14.6990
G1 X158.474 Y204.012 E14.7405
G1 X157.929 Y203.916 E14.7691
G1 X157.425 Y203.781 E14.7960
G1 X156.908 Y203.594 E14.8244
G1 X156.433 Y203.374 E14.8514
G1 X155.937 Y203.088 E14.8810
G1 X155.509 Y202.787 E14.9080
G1 X155.087 Y202.432 E14.9365
G1 X154.717 Y202.062 E14.9635
G1 X154.360 Y201.637 E14.9922
G1 X154.057 Y201.205 E15.0195
G1 X153.776 Y200.717 E15.0485
G1 X153.555 Y200.242 E15.0756
G1 X153.364 Y199.715 E15.1046
G1 X153.229 Y199.208 E15.1316
G1 X153.133 Y198.666 E15.1601
G1 X153.075 Y197.863 E15.2017
G1 X153.075 Y107.137 E19.8873
G1 X153.133 Y106.334 E19.9288
G1 X153.229 Y105.792 E19.9573
G1 X153.364 Y105.285 E19.9844
G1 X153.555 Y104.758 E20.0133
G1 X153.776 Y104.283 E20.0404
G1 X154.055 Y103.799 E20.0692
G1 F1200 E19.0692
G0 F6000 X151.445 Y104.758
G1 F1200 E20.0692
G1 F1800 X151.636 Y105.285 E20.0982
G1 X151.771 Y105.792 E20.1253
G1 X151.867 Y106.334 E20.1537
G1 X151.925 Y107.137 E20.1953
G1 X151.925 Y197.863 E24.8809
G1 X151.867 Y198.666 E24.9225
G1 X151.771 Y199.208 E24.9509
G1 X151.636 Y199.715 E24.9780
G1 X151.445 Y200.242 E25.0069
G1 X151.224 Y200.717 E25.0340
G1 X150.945 Y201.201 E25.0629
G1 X150.645 Y201.630 E25.0899
G1 X150.289 Y202.056 E25.1186
G1 X149.922 Y202.424 E25.1454
G1 X149.501 Y202.779 E25.1738
G1 X149.073 Y203.081 E25.2009
G1 X148.580 Y203.366 E25.2303
G1 X148.106 Y203.587 E25.2573
G1 X147.593 Y203.775 E25.2855
G1 X147.089 Y203.912 E25.3125
G1 X146.531 Y204.012 E25.3418
G1 X145.716 Y204.071 E25.3840
G1 X108.025 Y204.071 E27.3306
G1 X107.231 Y204.014 E27.3717
G1 X106.676 Y203.916 E27.4008
G1 X106.171 Y203.780 E27.4278
G1 X105.658 Y203.594 E27.4560
G1 X105.183 Y203.374 E27.4830
G1 X104.687 Y203.088 E27.5126
G1 X104.259 Y202.787 E27.5396
G1 X104.025 Y202.590 E27.5554
G1 X103.794 Y202.785 E27.5710
G1 X103.366 Y203.086 E27.5980
G1 X102.877 Y203.368 E27.6272
G1 X102.403 Y203.589 E27.6542
G1 X101.883 Y203.779 E27.6828
G1 X101.378 Y203.915 E27.7098
G1 X100.827 Y204.013 E27.7387
G1 X100.025 Y204.071 E27.7802
G1 X62.325 Y204.071 E29.7273
G1 X61.523 Y204.013 E29.7688
G1 X60.972 Y203.915 E29.7977
G1 X60.467 Y203.779 E29.8247
G1 X59.947 Y203.589 E29.8533
G1 X59.473 Y203.368 E29.8803
G1 X58.984 Y203.086 E29.9095
G1 X58.556 Y202.785 E29.9365
G1 X58.131 Y202.427 E29.9652
G1 X57.761 Y202.056 E29.9923
G1 X57.405 Y201.630 E30.0209
G1 X57.105 Y201.201 E30.0480
G1 X56.826 Y200.717 E30.0768
G1 X56.605 Y200.242 E30.1039
G1 X56.414 Y199.715 E30.1328
G1 X56.279 Y199.208 E30.1599
G1 X56.183 Y198.666 E30.1884
G1 X56.125 Y197.863 E30.2299
G1 X56.125 Y107.137 E34.9155
G1 X56.183 Y106.334 E34.9571
G1 X56.279 Y105.792 E34.9856
G1 X56.414 Y105.285 E35.0127
G1 X56.605 Y104.758 E35.0416
G1 X56.826 Y104.283 E35.0687
G1 X57.105 Y103.799 E35.0975
G1 X57.405 Y103.370 E35.1245
G1 X57.761 Y102.944 E35.1532
G1 X58.131 Y102.573 E35.1803
G1 X58.556 Y102.215 E35.2090
G1 X58.984 Y101.914 E35.2360
G1 X59.473 Y101.632 E35.2652
G1 X59.947 Y101.411 E35.2922
G1 X60.467 Y101.221 E35.3208
G1 X60.972 Y101.085 E35.3478
G1 X61.523 Y100.987 E35.3767
G1 X62.044 Y100.941 E35.4037
G1 X100.025 Y100.929 E37.3652
G1 X100.308 Y100.942 E37.3799
G1 X100.781 Y100.984 E37.4044
G1 X101.283 Y101.069 E37.4307
G1 X101.836 Y101.209 E37.4602
G1 X102.403 Y101.411 E37.4912
G1 X102.877 Y101.632 E37.5182
G1 X103.366 Y101.914 E37.5474
G1 X103.794 Y102.215 E37.5744
G1 X104.025 Y102.410 E37.5900
G1 X104.256 Y102.216 E37.6056
G1 X104.681 Y101.917 E37.6325
G1 X105.170 Y101.634 E37.6616
G1 X105.644 Y101.413 E37.6886
G1 X106.157 Y101.225 E37.7169
G1 X106.661 Y101.088 E37.7438
G1 X107.227 Y100.988 E37.7735
G1 X108.048 Y100.929 E37.8160
G1 X145.725 Y100.929 E39.7619
G1 X146.008 Y100.942 E39.7765
G1 X146.526 Y100.988 E39.8034
G1 X147.071 Y101.084 E39.8320
G1 X147.575 Y101.219 E39.8589
G1 X148.092 Y101.406 E39.8873
G1 X148.567 Y101.626 E39.9143
G1 X149.063 Y101.912 E39.9439
G1 X149.491 Y102.213 E39.9709
G1 X149.913 Y102.568 E39.9994
G1 X150.283 Y102.938 E40.0264
G1 X150.640 Y103.363 E40.0551
G1 X150.943 Y103.795 E40.0823
G1 X151.224 Y104.283 E40.1114
G1 X151.445 Y104.758 E40.1385
;PRINTING: V2 Box.stl
;PRINTING_ID: 0
G1 F1200 E39.1385
G0 F6000 X61.328 Y105.402
;TYPE:WALL-INNER
;WIDTH:0.400
G1 F1200 E40.1385
G1 F1800 X61.644 Y105.254 E40.1565
G1 X61.979 Y105.163 E40.1744
G1 X62.370 Y105.129 E40.1947
G1 X99.980 Y105.129 E42.1371
G1 X100.330 Y105.161 E42.1553
G1 X100.715 Y105.258 E42.1758
G1 X101.022 Y105.401 E42.1933
G1 X101.306 Y105.601 E42.2112
G1 X101.553 Y105.849 E42.2293
G1 X101.753 Y106.134 E42.2472
G1 X101.900 Y106.450 E42.2652
G1 X101.991 Y106.790 E42.2834
G1 X102.025 Y107.182 E42.3037
G1 X102.025 Y197.818 E46.9847
G1 X101.991 Y198.210 E47.0050
G1 X101.900 Y198.550 E47.0232
G1 X101.753 Y198.866 E47.0412
G1 X101.553 Y199.151 E47.0592
G1 X101.306 Y199.399 E47.0773
G1 X101.022 Y199.598 E47.0952
G1 X100.706 Y199.746 E47.1132
G1 X100.371 Y199.837 E47.1311
G1 X99.980 Y199.871 E47.1514
G1 X62.370 Y199.871 E49.0938
G1 X61.979 Y199.837 E49.1141
G1 X61.644 Y199.746 E49.1320
G1 X61.328 Y199.598 E49.1500
G1 X61.044 Y199.399 E49.1679
G1 X60.797 Y199.151 E49.1860
G1 X60.597 Y198.866 E49.2040
G1 X60.450 Y198.550 E49.2220
G1 X60.359 Y198.210 E49.2402
G1 X60.325 Y197.818 E49.2605
G1 X60.325 Y107.182 E53.9414
G1 X60.359 Y106.790 E53.9618
G1 X60.450 Y106.450 E53.9799
G1 X60.597 Y106.134 E53.9979
G1 X60.797 Y105.849 E54.0159
G1 X61.044 Y105.601 E54.0340
G1 X61.328 Y105.402 E54.0519
G1 F1200 E53.0519
G0 F6000 X67.655 Y117.538
G1 F1200 E54.0519
G1 F1800 X66.546 Y118.650 E54.1330
G1 X66.140 Y120.169 E54.2142
G1 X66.546 Y121.689 E54.2955
G1 X67.657 Y122.803 E54.3767
G1 X69.175 Y123.209 E54.4579
G1 X70.693 Y122.803 E54.5390
G1 X71.804 Y121.689 E54.6203
G1 X72.210 Y120.169 E54.7015
G1 X71.804 Y118.650 E54.7827
G1 X70.695 Y117.538 E54.8639
G1 X69.175 Y117.129 E54.9452
G1 X67.655 Y117.538 E55.0264
G1 F1200 E54.0264
G0 F6000 X74.546 Y118.650
G1 F1200 E55.0264
G1 F1800 X74.140 Y120.169 E55.1076
G1 X74.546 Y121.689 E55.1889
G1 X75.657 Y122.803 E55.2702
G1 X77.175 Y123.209 E55.3513
G1 X78.693 Y122.803 E55.4325
G1 X79.804 Y121.689 E55.5137
G1 X80.210 Y120.169 E55.5950
G1 X79.804 Y118.650 E55.6762
G1 X78.695 Y117.538 E55.7573
G1 X77.175 Y117.129 E55.8386
G1 X75.655 Y117.538 E55.9199
G1 X74.546 Y118.650 E56.0010
G1 F1200 E55.0010
G0 F6000 X75.956 Y115.262
G1 F1200 E56.0010
G1 F1800 X77.175 Y115.590 E56.0662
G1 X78.394 Y115.262 E56.1314
G1 X79.284 Y114.371 E56.1964
G1 X79.610 Y113.152 E56.2616
G1 X79.284 Y111.933 E56.3268
G1 X78.395 Y111.041 E56.3918
G1 X77.175 Y110.713 E56.4570
G1 X76.281 Y110.953 E56.5048
G1 X75.955 Y111.041 E56.5223
G1 X75.066 Y111.933 E56.5873
G1 X74.740 Y113.152 E56.6525
G1 X75.066 Y114.371 E56.7177
G1 X75.956 Y115.262 E56.7827
G1 F1200 E55.7827
G0 F6000 X82.740 Y113.152
G1 F1200 E56.7827
G1 F1800 X83.066 Y114.371 E56.8479
G1 X83.956 Y115.262 E56.9129
G1 X85.175 Y115.590 E56.9781
G1 X86.394 Y115.262 E57.0433
G1 X87.284 Y114.371 E57.1083
G1 X87.610 Y113.152 E57.1735
G1 X87.284 Y111.933 E57.2387
G1 X86.395 Y111.041 E57.3037
G1 X85.175 Y110.713 E57.3690
G1 X84.281 Y110.953 E57.4168
G1 X83.955 Y111.041 E57.4342
G1 X83.066 Y111.933 E57.4992
G1 X82.740 Y113.152 E57.5644
G1 F1200 E56.5644
G0 F6000 X83.655 Y117.538
G1 F1200 E57.5644
G1 F1800 X82.546 Y118.650 E57.6455
G1 X82.140 Y120.169 E57.7267
G1 X82.546 Y121.689 E57.8080
G1 X83.657 Y122.803 E57.8892
G1 X85.175 Y123.209 E57.9704
G1 X86.693 Y122.803 E58.0515
G1 X87.804 Y121.689 E58.1328
G1 X88.210 Y120.169 E58.2141
G1 X87.804 Y118.650 E58.2953
G1 X86.695 Y117.538 E58.3764
G1 X85.175 Y117.129 E58.4577
G1 X83.655 Y117.538 E58.5390
G1 F1200 E57.5390
G0 F6000 X90.546 Y118.650
G1 F1200 E58.5390
G1 F1800 X90.140 Y120.169 E58.6202
G1 X90.546 Y121.689 E58.7014
G1 X91.657 Y122.803 E58.7827
G1 X93.175 Y123.209 E58.8638
G1 X94.693 Y122.803 E58.9450
G1 X95.804 Y121.689 E59.0262
G1 X96.210 Y120.169 E59.1075
G1 X95.804 Y118.650 E59.1887
G1 X94.695 Y117.538 E59.2698
G1 X93.175 Y117.129 E59.3511
G1 X91.655 Y117.538 E59.4324
G1 X90.546 Y118.650 E59.5135
G1 F1200 E58.5135
G0 F6000 X86.426 Y177.911
G1 F1200 E59.5135
G1 F1800 X85.746 Y177.970 E59.5487
G1 X85.057 Y178.152 E59.5855
G1 X84.422 Y178.450 E59.6218
G1 X83.852 Y178.851 E59.6578
G1 X83.357 Y179.345 E59.6939
G1 X82.957 Y179.920 E59.7301
G1 X82.663 Y180.553 E59.7661
G1 X82.483 Y181.226 E59.8021
G1 X82.420 Y181.923 E59.8382
G1 X82.483 Y182.621 E59.8744
G1 X82.663 Y183.294 E59.9104
G1 X82.957 Y183.927 E59.9464
G1 X83.357 Y184.502 E59.9826
G1 X83.852 Y184.995 E60.0187
G1 X84.420 Y185.396 E60.0546
G1 X85.055 Y185.693 E60.0908
G1 X85.729 Y185.873 E60.1268
G1 X86.425 Y185.936 E60.1629
G1 X87.121 Y185.873 E60.1990
G1 X87.796 Y185.693 E60.2351
G1 X88.428 Y185.396 E60.2712
G1 X88.986 Y185.006 E60.3063
G1 X89.492 Y184.502 E60.3432
G1 X89.893 Y183.927 E60.3794
G1 X90.187 Y183.294 E60.4155
G1 X90.367 Y182.621 E60.4514
G1 X90.430 Y181.923 E60.4876
G1 X90.367 Y181.226 E60.5238
G1 X90.187 Y180.553 E60.5598
G1 X89.893 Y179.920 E60.5958
G1 X89.493 Y179.345 E60.6320
G1 X88.998 Y178.851 E60.6681
G1 X88.428 Y178.451 E60.7041
G1 X87.796 Y178.154 E60.7401
G1 X87.121 Y177.974 E60.7762
G1 X86.426 Y177.911 E60.8123
G0 F6000 X86.425 Y178.313
G1 F1800 X85.815 Y178.366 E60.8439
G1 X85.194 Y178.530 E60.8770
G1 X84.623 Y178.797 E60.9096
G1 X84.110 Y179.158 E60.9420
G1 X83.665 Y179.603 E60.9745
G1 X83.305 Y180.120 E61.0070
G1 X83.040 Y180.690 E61.0395
G1 X82.878 Y181.296 E61.0719
G1 X82.822 Y181.923 E61.1044
G1 X82.878 Y182.551 E61.1370
G1 X83.040 Y183.157 E61.1694
G1 X83.305 Y183.727 E61.2018
G1 X83.665 Y184.244 E61.2344
G1 X84.110 Y184.688 E61.2668
G1 X84.622 Y185.049 E61.2992
G1 X85.192 Y185.316 E61.3317
G1 X85.799 Y185.478 E61.3641
G1 X86.425 Y185.534 E61.3966
G1 X87.051 Y185.478 E61.4291
G1 X87.658 Y185.316 E61.4615
G1 X88.227 Y185.049 E61.4940
G1 X88.728 Y184.698 E61.5256
G1 X89.184 Y184.244 E61.5588
G1 X89.545 Y183.727 E61.5914
G1 X89.810 Y183.157 E61.6238
G1 X89.972 Y182.551 E61.6562
G1 X90.028 Y181.923 E61.6888
G1 X89.972 Y181.296 E61.7213
G1 X89.810 Y180.690 E61.7537
G1 X89.545 Y180.120 E61.7862
G1 X89.185 Y179.603 E61.8187
G1 X88.740 Y179.158 E61.8512
G1 X88.227 Y178.798 E61.8836
G1 X87.658 Y178.531 E61.9160
G1 X87.051 Y178.369 E61.9485
G1 X86.425 Y178.313 E61.9809
G1 F1200 E60.9809
G0 F6000 X102.425 Y197.836
G1 F1200 E61.9809
G1 F1800 X102.386 Y198.280 E62.0039
G1 X102.277 Y198.687 E62.0257
G1 X102.101 Y199.066 E62.0473
G1 X101.861 Y199.409 E62.0689
G1 X101.565 Y199.706 E62.0906
G1 X101.223 Y199.946 E62.1121
G1 X100.844 Y200.123 E62.1337
G1 X100.441 Y200.232 E62.1553
G1 X99.998 Y200.271 E62.1783
G1 X62.352 Y200.271 E64.1225
G1 X61.909 Y200.232 E64.1455
G1 X61.506 Y200.123 E64.1671
G1 X61.127 Y199.946 E64.1887
G1 X60.785 Y199.706 E64.2102
G1 X60.489 Y199.409 E64.2319
G1 X60.249 Y199.066 E64.2535
G1 X60.073 Y198.687 E64.2751
G1 X59.964 Y198.280 E64.2969
G1 X59.925 Y197.836 E64.3199
G1 X59.925 Y107.164 E69.0027
G1 X59.964 Y106.720 E69.0257
G1 X60.073 Y106.313 E69.0475
G1 X60.249 Y105.934 E69.0691
G1 X60.489 Y105.591 E69.0907
G1 X60.785 Y105.294 E69.1123
G1 X61.127 Y105.054 E69.1339
G1 X61.506 Y104.877 E69.1555
G1 X61.909 Y104.768 E69.1771
G1 X62.352 Y104.729 E69.2000
G1 X99.998 Y104.729 E71.1443
G1 X100.397 Y104.765 E71.1650
G1 X100.849 Y104.879 E71.1891
G1 X101.223 Y105.053 E71.2104
G1 X101.565 Y105.294 E71.2320
G1 X101.861 Y105.591 E71.2536
G1 X102.101 Y105.934 E71.2753
G1 X102.277 Y106.313 E71.2968
G1 X102.386 Y106.720 E71.3186
G1 X102.425 Y107.164 E71.3416
G1 X102.425 Y197.836 E76.0244
G1 F1200 E75.0244
G0 F6000 X93.175 Y122.795
G1 F1200 E76.0244
G1 F1800 X94.486 Y122.444 E76.0945
G1 X95.445 Y121.482 E76.1647
G1 X95.796 Y120.169 E76.2349
G1 X95.445 Y118.857 E76.3050
G1 X94.487 Y117.896 E76.3751
G1 X93.175 Y117.543 E76.4453
G1 X91.863 Y117.896 E76.5154
G1 X90.905 Y118.857 E76.5855
G1 X90.554 Y120.169 E76.6557
G1 X90.905 Y121.482 E76.7258
G1 X91.864 Y122.444 E76.7960
G1 X93.175 Y122.795 E76.8661
G1 F1200 E75.8661
G0 F6000 X87.445 Y121.482
G1 F1200 E76.8661
G1 F1800 X87.796 Y120.169 E76.9363
G1 X87.445 Y118.857 E77.0064
G1 X86.487 Y117.896 E77.0765
G1 X85.175 Y117.543 E77.1467
G1 X83.863 Y117.896 E77.2168
G1 X82.905 Y118.857 E77.2869
G1 X82.554 Y120.169 E77.3571
G1 X82.905 Y121.482 E77.4273
G1 X83.864 Y122.444 E77.4974
G1 X85.175 Y122.795 E77.5675
G1 X86.486 Y122.444 E77.6376
G1 X87.445 Y121.482 E77.7077
G1 F1200 E76.7077
G0 F6000 X86.187 Y114.904
G1 F1200 E77.7077
G1 F1800 X86.925 Y114.164 E77.7617
G1 X87.196 Y113.152 E77.8158
G1 X86.925 Y112.140 E77.8699
G1 X86.187 Y111.399 E77.9239
G1 X85.175 Y111.127 E77.9781
G1 X84.385 Y111.339 E78.0203
G1 X84.163 Y111.399 E78.0322
G1 X83.425 Y112.140 E78.0862
G1 X83.154 Y113.152 E78.1403
G1 X83.425 Y114.164 E78.1944
G1 X84.163 Y114.904 E78.2484
G1 X85.175 Y115.176 E78.3025
G1 X86.187 Y114.904 E78.3566
G1 F1200 E77.3566
G0 F6000 X79.196 Y113.152
G1 F1200 E78.3566
G1 F1800 X78.925 Y112.140 E78.4107
G1 X78.187 Y111.399 E78.4648
G1 X77.175 Y111.127 E78.5189
