;Sliced by ideaMaker 4.1.1.5050, 2021-08-02 17:59:38 UTC-0400
;Dimension: 305.000 305.000 305.000 0.400
;Plate Shape: 0
;Origin Center: 0
;Extruder Offset #1: 25.000 0.000
;Filament Diameter #1: 1.720
;Filament Diameter #2: 1.750
;Filament Compensation #1: 94.00
;Filament Compensation #2: 100.00
;Filament Density #1: 1240.00
;Filament Density #2: 1240.00
;Bounding Box: 101.050 203.938 127.395 177.605 0.000 24.900
;Model Gap: 0.000
M221 T0 S94.00
G21
G90
M82
M107
M190 S50
M42 P8 S255
M109 S215
G28 X0 Y0
G28 Z0
G1 Z15.0 F6000.0
G92 E0
G1 F140 E29
G1 X20 Y0 F140 E30
G92 E0
G1 F6000.0
M117 Printing...
M1001
;TOTAL_NUM: 1
;PRINTING_TIME: 0
;REMAINING_TIME: 3984
;LAYER:0
;Z:0.300
;HEIGHT:0.300
M106 S0
M140 S50
;PRINTING: NON-OBJECT
;PRINTING_ID: -1
G1 F1200 E-1.0000
G0 F6000 X103.475 Y128.687
G0 F600 Z0.300
;TYPE:SKIRT
;WIDTH:0.400
G1 F1200 E0.0000
G1 F1800 X103.906 Y128.383 E0.0272
G1 X104.398 Y128.098 E0.0566
G1 X104.872 Y127.877 E0.0836
G1 X105.392 Y127.687 E0.1122
G1 X105.897 Y127.551 E0.1392
G1 X106.448 Y127.453 E0.1681
G1 X107.250 Y127.395 E0.2096
G1 X198.031 Y127.407 E4.8981
G1 X198.552 Y127.453 E4.9251
G1 X199.103 Y127.551 E4.9540
G1 X199.608 Y127.687 E4.9810
G1 X200.128 Y127.877 E5.0096
G1 X200.602 Y128.098 E5.0366
G1 X201.091 Y128.380 E5.0658
G1 X201.519 Y128.681 E5.0928
G1 X201.944 Y129.039 E5.1215
G1 X202.314 Y129.410 E5.1486
G1 X202.670 Y129.836 E5.1772
G1 X202.968 Y130.262 E5.2041
G1 X203.247 Y130.746 E5.2329
G1 X203.468 Y131.221 E5.2600
G1 X203.657 Y131.740 E5.2885
G1 X203.793 Y132.246 E5.3156
G1 X203.891 Y132.797 E5.3445
G1 X203.938 Y133.332 E5.3722
G1 X203.938 Y171.680 E7.3527
G1 X203.892 Y172.199 E7.3796
G1 X203.797 Y172.735 E7.4078
G1 X203.663 Y173.241 E7.4348
G1 X203.475 Y173.765 E7.4635
G1 X203.255 Y174.241 E7.4906
G1 X202.972 Y174.732 E7.5199
G1 X202.672 Y175.161 E7.5469
G1 X202.319 Y175.584 E7.5754
G1 X201.950 Y175.955 E7.6024
G1 X201.525 Y176.313 E7.6311
G1 X201.094 Y176.617 E7.6583
G1 X200.602 Y176.902 E7.6877
G1 X200.128 Y177.123 E7.7147
G1 X199.608 Y177.313 E7.7433
G1 X199.103 Y177.449 E7.7703
G1 X198.552 Y177.547 E7.7992
G1 X197.750 Y177.605 E7.8408
G1 X107.250 Y177.605 E12.5147
G1 X106.448 Y177.547 E12.5562
G1 X105.897 Y177.449 E12.5851
G1 X105.392 Y177.313 E12.6121
G1 X104.872 Y177.123 E12.6407
G1 X104.398 Y176.902 E12.6677
G1 X103.909 Y176.620 E12.6969
G1 X103.481 Y176.319 E12.7239
G1 X103.056 Y175.961 E12.7526
G1 X102.689 Y175.593 E12.7795
G1 X102.335 Y175.171 E12.8079
G1 X102.034 Y174.742 E12.8350
G1 X101.753 Y174.254 E12.8640
G1 X101.532 Y173.779 E12.8911
G1 X101.343 Y173.260 E12.9196
G1 X101.207 Y172.754 E12.9467
G1 X101.109 Y172.203 E12.9756
G1 X101.050 Y171.388 E13.0178
G1 X101.062 Y133.326 E14.9835
G1 X101.107 Y132.808 E15.0104
G1 X101.203 Y132.262 E15.0390
G1 X101.338 Y131.755 E15.0661
G1 X101.525 Y131.235 E15.0947
G1 X101.745 Y130.759 E15.1217
G1 X102.028 Y130.268 E15.1510
G1 X102.328 Y129.839 E15.1780
G1 X102.681 Y129.416 E15.2065
G1 X103.050 Y129.045 E15.2335
G1 X103.475 Y128.687 E15.2622
;PRINTING: V2 Box Bot.stl
;PRINTING_ID: 0
G1 F1200 E14.2622
G0 F6000 X105.967 Y132.069
;TYPE:WALL-INNER
;WIDTH:0.400
G1 F1200 E15.2622
G1 F1800 X106.253 Y131.867 E15.2803
G1 X106.569 Y131.720 E15.2983
G1 X106.904 Y131.629 E15.3162
G1 X107.295 Y131.595 E15.3365
G1 X197.705 Y131.595 E20.0058
G1 X198.096 Y131.629 E20.0261
G1 X198.431 Y131.720 E20.0440
G1 X198.747 Y131.868 E20.0620
G1 X199.031 Y132.067 E20.0799
G1 X199.278 Y132.315 E20.0980
G1 X199.476 Y132.597 E20.1158
G1 X199.624 Y132.914 E20.1339
G1 X199.715 Y133.252 E20.1519
G1 X199.750 Y133.656 E20.1729
G1 X199.750 Y171.352 E22.1197
G1 X199.716 Y171.742 E22.1399
G1 X199.625 Y172.082 E22.1581
G1 X199.480 Y172.398 E22.1761
G1 X199.280 Y172.682 E22.1940
G1 X199.033 Y172.931 E22.2121
G1 X198.747 Y173.133 E22.2302
G1 X198.431 Y173.280 E22.2482
G1 X198.096 Y173.371 E22.2661
G1 X197.705 Y173.405 E22.2864
G1 X107.295 Y173.405 E26.9557
G1 X106.904 Y173.371 E26.9760
G1 X106.569 Y173.280 E26.9939
G1 X106.253 Y173.132 E27.0119
G1 X105.969 Y172.933 E27.0298
G1 X105.725 Y172.688 E27.0477
G1 X105.524 Y172.402 E27.0657
G1 X105.376 Y172.086 E27.0838
G1 X105.285 Y171.748 E27.1018
G1 X105.250 Y171.344 E27.1228
G1 X105.250 Y133.646 E29.0697
G1 X105.283 Y133.258 E29.0898
G1 X105.375 Y132.918 E29.1080
G1 X105.520 Y132.602 E29.1260
G1 X105.720 Y132.318 E29.1439
G1 X105.967 Y132.069 E29.1620
G0 F6000 X105.708 Y131.762
G1 F1800 X106.052 Y131.520 E29.1838
G1 X106.431 Y131.343 E29.2054
G1 X106.834 Y131.234 E29.2269
G1 X107.277 Y131.195 E29.2499
G1 X197.723 Y131.195 E33.9210
G1 X198.166 Y131.234 E33.9440
G1 X198.569 Y131.343 E33.9656
G1 X198.948 Y131.520 E33.9872
G1 X199.290 Y131.760 E34.0087
G1 X199.586 Y132.057 E34.0304
G1 X199.824 Y132.396 E34.0518
G1 X200.001 Y132.777 E34.0735
G1 X200.110 Y133.182 E34.0952
G1 X200.150 Y133.639 E34.1188
G1 X200.150 Y171.370 E36.0675
G1 X200.111 Y171.812 E36.0904
G1 X200.003 Y172.218 E36.1121
G1 X199.828 Y172.598 E36.1337
G1 X199.588 Y172.940 E36.1553
G1 X199.292 Y173.238 E36.1770
G1 X198.948 Y173.480 E36.1987
G1 X198.569 Y173.657 E36.2203
G1 X198.166 Y173.766 E36.2419
G1 X197.723 Y173.805 E36.2648
G1 X107.277 Y173.805 E40.9360
G1 X106.834 Y173.766 E40.9590
G1 X106.431 Y173.657 E40.9805
G1 X106.052 Y173.480 E41.0021
G1 X105.710 Y173.240 E41.0237
G1 X105.417 Y172.946 E41.0451
G1 X105.176 Y172.603 E41.0668
G1 X104.999 Y172.223 E41.0884
G1 X104.890 Y171.818 E41.1101
G1 X104.850 Y171.361 E41.1338
G1 X104.850 Y133.629 E43.0825
G1 X104.888 Y133.189 E43.1053
G1 X104.997 Y132.782 E43.1270
G1 X105.172 Y132.402 E43.1487
G1 X105.412 Y132.060 E43.1702
G1 X105.708 Y131.762 E43.1919
G0 F6000 X105.449 Y131.455
;TYPE:WALL-OUTER
;WIDTH:0.400
G1 F1800 X105.851 Y131.172 E43.2173
G1 X106.293 Y130.966 E43.2425
G1 X106.764 Y130.839 E43.2677
G1 X107.259 Y130.795 E43.2934
G1 X197.741 Y130.795 E47.9664
G1 X198.236 Y130.839 E47.9920
G1 X198.707 Y130.966 E48.0172
G1 X199.149 Y131.172 E48.0424
G1 X199.549 Y131.453 E48.0677
G1 X199.894 Y131.799 E48.0929
G1 X200.172 Y132.196 E48.1179
G1 X200.378 Y132.640 E48.1432
G1 X200.505 Y133.112 E48.1684
G1 X200.550 Y133.621 E48.1948
G1 X200.550 Y171.388 E50.1453
G1 X200.506 Y171.881 E50.1709
G1 X200.381 Y172.354 E50.1962
G1 X200.176 Y172.798 E50.2214
G1 X199.896 Y173.198 E50.2466
G1 X199.551 Y173.545 E50.2719
G1 X199.149 Y173.828 E50.2973
G1 X198.707 Y174.034 E50.3225
G1 X198.236 Y174.161 E50.3477
G1 X197.741 Y174.205 E50.3734
G1 X107.259 Y174.205 E55.0464
G1 X106.764 Y174.161 E55.0720
G1 X106.293 Y174.034 E55.0972
G1 X105.851 Y173.828 E55.1224
G1 X105.451 Y173.547 E55.1477
G1 X105.109 Y173.204 E55.1727
G1 X104.828 Y172.804 E55.1979
G1 X104.622 Y172.360 E55.2232
G1 X104.495 Y171.888 E55.2484
G1 X104.450 Y171.379 E55.2748
G1 X104.450 Y133.612 E57.2253
G1 X104.493 Y133.120 E57.2508
G1 X104.619 Y132.646 E57.2762
G1 X104.824 Y132.202 E57.3014
G1 X105.104 Y131.802 E57.3266
G1 X105.449 Y131.455 E57.3519
G1 F1200 E56.3519
G0 F6000 X105.457 Y171.925
;TYPE:SOLID-FILL
;WIDTH:0.400
G1 F1200 E57.3519
G1 F1800 X106.730 Y173.198 E57.4449
G1 F1200 E56.4449
G0 F6000 X107.381 Y173.284
G1 F1200 E57.4449
G1 F1800 X105.370 Y171.272 E57.5918
G1 F1200 E56.5918
G0 F6000 X105.370 Y170.706
G1 F1200 E57.5918
G1 F1800 X107.947 Y173.284 E57.7801
G1 F1200 E56.7801
G0 F6000 X108.513 Y173.284
G1 F1200 E57.7801
G1 F1800 X105.370 Y170.141 E58.0096
G1 F1200 E57.0096
G0 F6000 X105.370 Y169.575
G1 F1200 E58.0096
G1 F1800 X109.078 Y173.284 E58.2805
G1 F1200 E57.2805
G0 F6000 X109.644 Y173.284
G1 F1200 E58.2805
G1 F1800 X105.370 Y169.009 E58.5927
G1 F1200 E57.5927
G0 F6000 X105.370 Y168.444
G1 F1200 E58.5927
G1 F1800 X110.210 Y173.284 E58.9462
G1 F1200 E57.9462
G0 F6000 X110.776 Y173.284
G1 F1200 E58.9462
G1 F1800 X105.370 Y167.878 E59.3410
G1 F1200 E58.3410
G0 F6000 X105.370 Y167.312
G1 F1200 E59.3410
G1 F1800 X111.341 Y173.284 E59.7772
G1 F1200 E58.7772
G0 F6000 X111.907 Y173.284
G1 F1200 E59.7772
G1 F1800 X105.370 Y166.747 E60.2546
G1 F1200 E59.2546
G0 F6000 X105.370 Y166.181
G1 F1200 E60.2546
G1 F1800 X112.473 Y173.284 E60.7734
G1 F1200 E59.7734
G0 F6000 X113.038 Y173.284
G1 F1200 E60.7734
G1 F1800 X105.370 Y165.615 E61.3335
G1 F1200 E60.3335
G0 F6000 X105.370 Y165.050
G1 F1200 E61.3335
G1 F1800 X113.604 Y173.284 E61.9349
G1 F1200 E60.9349
G0 F6000 X114.170 Y173.284
G1 F1200 E61.9349
G1 F1800 X105.370 Y164.484 E62.5776
G1 F1200 E61.5776
G0 F6000 X105.370 Y163.918
G1 F1200 E62.5776
G1 F1800 X114.735 Y173.284 E63.2617
G1 F1200 E62.2617
G0 F6000 X115.301 Y173.284
G1 F1200 E63.2617
G1 F1800 X105.370 Y163.352 E63.9871
G1 F1200 E62.9871
G0 F6000 X105.370 Y162.787
G1 F1200 E63.9871
G1 F1800 X115.867 Y173.284 E64.7537
G1 F1200 E63.7537
G0 F6000 X116.432 Y173.284
G1 F1200 E64.7537
G1 F1800 X105.370 Y162.221 E65.5617
G1 F1200 E64.5617
G0 F6000 X105.370 Y161.655
G1 F1200 E65.5617
G1 F1800 X116.998 Y173.284 E66.4110
G1 F1200 E65.4110
G0 F6000 X117.564 Y173.284
G1 F1200 E66.4110
G1 F1800 X105.370 Y161.090 E67.3017
G1 F1200 E66.3017
G0 F6000 X105.370 Y160.524
G1 F1200 E67.3017
G1 F1800 X118.129 Y173.284 E68.2336
G1 F1200 E67.2336
G0 F6000 X118.695 Y173.284
G1 F1200 E68.2336
G1 F1800 X105.370 Y159.958 E69.2069
G1 F1200 E68.2069
G0 F6000 X105.370 Y159.393
G1 F1200 E69.2069
G1 F1800 X119.261 Y173.284 E70.2214
G1 F1200 E69.2214
G0 F6000 X119.827 Y173.284
G1 F1200 E70.2214
G1 F1800 X105.370 Y158.827 E71.2774
G1 F1200 E70.2774
G0 F6000 X105.370 Y158.261
G1 F1200 E71.2774
G1 F1800 X120.392 Y173.284 E72.3746
G1 F1200 E71.3746
G0 F6000 X120.958 Y173.284
G1 F1200 E72.3746
G1 F1800 X105.370 Y157.696 E73.5131
G1 F1200 E72.5131
G0 F6000 X105.370 Y157.130
G1 F1200 E73.5131
G1 F1800 X121.524 Y173.284 E74.6929
G1 F1200 E73.6929
G0 F6000 X122.089 Y173.284
G1 F1200 E74.6929
G1 F1800 X105.370 Y156.564 E75.9141
G1 F1200 E74.9141
G0 F6000 X105.370 Y155.999
G1 F1200 E75.9141
G1 F1800 X122.655 Y173.284 E77.1766
G1 F1200 E76.1766
G0 F6000 X123.221 Y173.284
G1 F1200 E77.1766
G1 F1800 X105.370 Y155.433 E78.4804
G1 F1200 E77.4804
G0 F6000 X105.370 Y154.867
G1 F1200 E78.4804
G1 F1800 X123.786 Y173.284 E79.8255
G1 F1200 E78.8255
G0 F6000 X124.352 Y173.284
G1 F1200 E79.8255
G1 F1800 X105.370 Y154.302 E81.2119
G1 F1200 E80.2119
G0 F6000 X105.370 Y153.736
G1 F1200 E81.2119
G1 F1800 X124.918 Y173.284 E82.6396
G1 F1200 E81.6396
G0 F6000 X125.483 Y173.284
G1 F1200 E82.6396
G1 F1800 X105.370 Y153.170 E84.1087
G1 F1200 E83.1087
G0 F6000 X105.370 Y152.604
G1 F1200 E84.1087
G1 F1800 X126.049 Y173.284 E85.6191
G1 F1200 E84.6191
G0 F6000 X126.615 Y173.284
G1 F1200 E85.6191
G1 F1800 X105.370 Y152.039 E87.1708
G1 F1200 E86.1708
G0 F6000 X105.370 Y151.473
G1 F1200 E87.1708
G1 F1800 X127.180 Y173.284 E88.7638
G1 F1200 E87.7638
G0 F6000 X127.746 Y173.284
G1 F1200 E88.7638
G1 F1800 X105.370 Y150.907 E90.3981
G1 F1200 E89.3981
G0 F6000 X105.370 Y150.342
G1 F1200 E90.3981
G1 F1800 X128.312 Y173.284 E92.0738
G1 F1200 E91.0738
G0 F6000 X128.877 Y173.284
G1 F1200 E92.0738
G1 F1800 X105.370 Y149.776 E93.7907
G1 F1200 E92.7907
G0 F6000 X105.370 Y149.210
G1 F1200 E93.7907
G1 F1800 X129.443 Y173.284 E95.5490
G1 F1200 E94.5490
G0 F6000 X130.009 Y173.284
G1 F1200 E95.5490
G1 F1800 X105.370 Y148.645 E97.3486
G1 F1200 E96.3486
G0 F6000 X105.370 Y148.079
G1 F1200 E97.3486
G1 F1800 X130.575 Y173.284 E99.1895
G1 F1200 E98.1895
G0 F6000 X131.140 Y173.284
G1 F1200 E99.1895
G1 F1800 X105.370 Y147.513 E101.0717
G1 F1200 E100.0717
G0 F6000 X105.370 Y146.948
G1 F1200 E101.0717
G1 F1800 X131.706 Y173.284 E102.9952
G1 F1200 E101.9952
G0 F6000 X132.272 Y173.284
G1 F1200 E102.9952
G1 F1800 X105.370 Y146.382 E104.9601
G1 F1200 E103.9601
G0 F6000 X105.370 Y145.816
G1 F1200 E104.9601
G1 F1800 X132.837 Y173.284 E106.9663
G1 F1200 E105.9663
G0 F6000 X133.403 Y173.284
G1 F1200 E106.9663
G1 F1800 X105.370 Y145.251 E109.0138
G1 F1200 E108.0138
G0 F6000 X105.370 Y144.685
G1 F1200 E109.0138
G1 F1800 X133.969 Y173.284 E111.1026
G1 F1200 E110.1026
G0 F6000 X134.534 Y173.284
G1 F1200 E111.1026
G1 F1800 X105.370 Y144.119 E113.2327
G1 F1200 E112.2327
G0 F6000 X105.370 Y143.553
G1 F1200 E113.2327
G1 F1800 X135.100 Y173.284 E115.4042
G1 F1200 E114.4042
G0 F6000 X135.666 Y173.284
G1 F1200 E115.4042
G1 F1800 X105.370 Y142.988 E117.6169
G1 F1200 E116.6169
G0 F6000 X105.370 Y142.422
G1 F1200 E117.6169
G1 F1800 X136.231 Y173.284 E119.8710
G1 F1200 E118.8710
G0 F6000 X136.797 Y173.284
G1 F1200 E119.8710
G1 F1800 X105.370 Y141.856 E122.1664
G1 F1200 E121.1664
G0 F6000 X105.370 Y141.291
G1 F1200 E122.1664
G1 F1800 X137.363 Y173.284 E124.5031
G1 F1200 E123.5031
G0 F6000 X137.928 Y173.284
G1 F1200 E124.5031
G1 F1800 X105.370 Y140.725 E126.8811
G1 F1200 E125.8811
G0 F6000 X105.370 Y140.159
G1 F1200 E126.8811
G1 F1800 X138.494 Y173.284 E129.3005
G1 F1200 E128.3005
G0 F6000 X139.060 Y173.284
G1 F1200 E129.3005
G1 F1800 X105.370 Y139.594 E131.7611
G1 F1200 E130.7611
G0 F6000 X105.370 Y139.028
G1 F1200 E131.7611
G1 F1800 X139.626 Y173.284 E134.2631
G1 F1200 E133.2631
G0 F6000 X140.191 Y173.284
G1 F1200 E134.2631
G1 F1800 X105.370 Y138.462 E136.8064
G1 F1200 E135.8064
G0 F6000 X105.370 Y137.897
G1 F1200 E136.8064
G1 F1800 X140.757 Y173.284 E139.3910
G1 F1200 E138.3910
G0 F6000 X141.323 Y173.284
G1 F1200 E139.3910
G1 F1800 X105.370 Y137.331 E142.0169
G1 F1200 E141.0169
G0 F6000 X105.370 Y136.765
G1 F1200 E142.0169
G1 F1800 X141.888 Y173.284 E144.6842
G1 F1200 E143.6842
G0 F6000 X142.454 Y173.284
G1 F1200 E144.6842
G1 F1800 X105.370 Y136.200 E147.3927
G1 F1200 E146.3927
G0 F6000 X105.370 Y135.634
G1 F1200 E147.3927
G1 F1800 X143.020 Y173.284 E150.1426
G1 F1200 E149.1426
G0 F6000 X143.585 Y173.284
G1 F1200 E150.1426
G1 F1800 X105.370 Y135.068 E152.9338
G1 F1200 E151.9338
G0 F6000 X105.370 Y134.503
G1 F1200 E152.9338
G1 F1800 X144.151 Y173.284 E155.7663
G1 F1200 E154.7663
G0 F6000 X144.717 Y173.284
G1 F1200 E155.7663
G1 F1800 X105.370 Y133.937 E158.6401
G1 F1200 E157.6401
G0 F6000 X105.391 Y133.392
G1 F1200 E158.6401
G1 F1800 X145.282 Y173.284 E161.5537
G1 F1200 E160.5537
G0 F6000 X145.848 Y173.284
G1 F1200 E161.5537
G1 F1800 X105.498 Y132.934 E164.5008
G0 F6000 X105.692 Y132.562
G1 F1800 X146.414 Y173.284 E167.4751
G1 F1200 E166.4751
G0 F6000 X146.979 Y173.284
G1 F1200 E167.4751
G1 F1800 X105.950 Y132.255 E170.4718
G0 F6000 X106.266 Y132.004
G1 F1800 X147.545 Y173.284 E173.4867
G1 F1200 E172.4867
G0 F6000 X148.111 Y173.284
G1 F1200 E173.4867
G1 F1800 X106.650 Y131.823 E176.5150
G0 F6000 X107.123 Y131.730
G1 F1800 X148.676 Y173.284 E179.5500
G1 F1200 E178.5500
G0 F6000 X149.242 Y173.284
G1 F1200 E179.5500
G1 F1800 X107.673 Y131.714 E182.5861
G1 F1200 E181.5861
G0 F6000 X108.238 Y131.714
G1 F1200 E182.5861
G1 F1800 X149.808 Y173.284 E185.6223
G1 F1200 E184.6223
G0 F6000 X150.374 Y173.284
G1 F1200 E185.6223
G1 F1800 X108.804 Y131.714 E188.6585
G1 F1200 E187.6585
G0 F6000 X109.370 Y131.714
G1 F1200 E188.6585
G1 F1800 X150.939 Y173.284 E191.6947
G1 F1200 E190.6947
G0 F6000 X151.505 Y173.284
G1 F1200 E191.6947
G1 F1800 X109.936 Y131.714 E194.7308
G1 F1200 E193.7308
G0 F6000 X110.501 Y131.714
G1 F1200 E194.7308
G1 F1800 X152.071 Y173.284 E197.7670
G1 F1200 E196.7670
G0 F6000 X152.636 Y173.284
G1 F1200 E197.7670
G1 F1800 X111.067 Y131.714 E200.8032
G1 F1200 E199.8032
G0 F6000 X111.633 Y131.714
G1 F1200 E200.8032
G1 F1800 X153.202 Y173.284 E203.8393
G1 F1200 E202.8393
G0 F6000 X153.768 Y173.284
G1 F1200 E203.8393
G1 F1800 X112.198 Y131.714 E206.8755
G1 F1200 E205.8755
G0 F6000 X112.764 Y131.714
G1 F1200 E206.8755
G1 F1800 X154.333 Y173.284 E209.9117
G1 F1200 E208.9117
G0 F6000 X154.899 Y173.284
G1 F1200 E209.9117
G1 F1800 X113.330 Y131.714 E212.9478
G1 F1200 E211.9478
G0 F6000 X113.895 Y131.714
G1 F1200 E212.9478
G1 F1800 X155.465 Y173.284 E215.9840
G1 F1200 E214.9840
G0 F6000 X156.030 Y173.284
G1 F1200 E215.9840
G1 F1800 X114.461 Y131.714 E219.0202
G1 F1200 E218.0202
G0 F6000 X115.027 Y131.714
G1 F1200 E219.0202
G1 F1800 X156.596 Y173.284 E222.0563
G1 F1200 E221.0563
G0 F6000 X157.162 Y173.284
G1 F1200 E222.0563
G1 F1800 X115.592 Y131.714 E225.0925
G1 F1200 E224.0925
G0 F6000 X116.158 Y131.714
G1 F1200 E225.0925
G1 F1800 X157.727 Y173.284 E228.1287
G1 F1200 E227.1287
G0 F6000 X158.293 Y173.284
G1 F1200 E228.1287
G1 F1800 X116.724 Y131.714 E231.1648
